; generated by PrusaSlicer 2.7.1+linux-x64-GTK3 on 2025-12-20 at 01:50:07 UTC

; 

; external perimeters extrusion width = 0.45mm
; perimeters extrusion width = 0.45mm
; infill extrusion width = 0.45mm
; solid infill extrusion width = 0.45mm
; top infill extrusion width = 0.40mm
; first layer extrusion width = 0.42mm

M73 P0 R179
M73 Q0 S182
M201 X1000 Y1000 Z1000 E5000 ; sets maximum accelerations, mm/sec^2
M203 X200 Y200 Z12 E120 ; sets maximum feedrates, mm / sec
M204 S1250 T1250 ; sets acceleration (S) and retract acceleration (R), mm/sec^2
M205 X8.00 Y8.00 Z0.40 E1.50 ; sets the jerk limits, mm/sec
M205 S0 T0 ; sets the minimum extruding and travel feed rate, mm/sec
;TYPE:Custom
M115 U3.4.0 ; tell printer latest fw version
M83  ; extruder relative mode
M104 S230 ; set extruder temp
M140 S95 ; set bed temp
M190 S95 ; wait for bed temp
M109 S230 ; wait for extruder temp
G28 W ; home all without mesh bed level
G80 ; mesh bed leveling
G1 Y-3.0 F1000.0 ; go outside print area
G92 E0.0
G1 X60.0 E9.0  F1000.0 ; intro line
G1 X100.0 E12.5  F1000.0 ; intro line
G92 E0.0
M221 S95
G21 ; set units to millimeters
G90 ; use absolute coordinates
M83 ; use relative distances for extrusion
M900 K45; Filament gcode
M107
;LAYER_CHANGE
;Z:0.2
;HEIGHT:0.2
;BEFORE_LAYER_CHANGE
G92 E0.0
;0.2


G1 E-1.5 F2700
G1 Z.2 F10800
;AFTER_LAYER_CHANGE
;0.2
G1 X98.295 Y32.44
G1 Z.2
G1 E1.5 F2700
M204 S1000
;TYPE:Skirt/Brim
;WIDTH:0.42
G1 F600
G1 X98.991 Y30.759 E.05705
G1 X102.233 Y27.567 E.14265
G1 X123.266 Y12.764 E.80643
G1 X124.739 Y11.915 E.05331
G1 X126.297 Y11.392 E.05153
G1 X127.931 Y11.187 E.05163
G1 X143.611 Y11.186 E.49164
G1 X145.239 Y11.391 E.05145
G1 X146.802 Y11.914 E.05168
G1 X148.23 Y12.732 E.0516
G1 X149.464 Y13.805 E.05127
G1 X150.472 Y15.108 E.05165
G1 X151.202 Y16.575 E.05138
G1 X151.635 Y18.164 E.05164
G1 X151.746 Y19.321 E.03644
G1 X151.725 Y190.362 E5.36287
G1 X151.54 Y191.636 E.04036
M73 Q0 S181
G1 X151.207 Y192.735 E.03601
G1 X150.597 Y194.004 E.04415
G1 X150.063 Y194.805 E.03018
G1 X149.122 Y195.858 E.04428
G1 X148.234 Y196.587 E.03602
G1 X147.025 Y197.301 E.04402
G1 X146.141 Y197.669 E.03002
G1 X144.768 Y198.024 E.04447
G1 X143.496 Y198.138 E.04004
G1 X127.571 Y198.114 E.49932
G1 X126.297 Y197.929 E.04036
G1 X125.415 Y197.673 E.0288
G1 X124.537 Y197.31 E.02979
G1 X123.731 Y196.868 E.02882
G1 X102.233 Y181.755 E.82395
G1 X98.991 Y178.563 E.14265
G1 X98.295 Y176.882 E.05705
G1 X98.295 Y32.5 E4.527
;WIPE_START
G1 F8640
M73 P0 R178
G1 X98.295 Y32.44 E-.01781
G1 X98.991 Y30.759 E-.54013
G1 X101.252 Y28.532 E-.94206
;WIPE_END
G1 Z.8 F10800
G1 X101.155 Y33.22
G1 Z.2
G1 E1.5 F2700
G1 F600
G1 X101.29 Y32.684 E.01733
G1 X102.016 Y31.5 E.04355
G1 X102.62 Y30.896 E.02678
G1 X103.211 Y30.44 E.02341
G1 X104.941 Y29.828 E.05754
G1 X122.459 Y29.797 E.54927
G1 X122.463 Y19.353 E.32746
G1 X122.596 Y18.313 E.03287
G1 X123.003 Y17.126 E.03934
G1 X123.64 Y16.082 E.03835
G1 X124.427 Y15.244 E.03605
G1 X125.173 Y14.698 E.02899
G1 X125.992 Y14.279 E.02884
G1 X127.001 Y13.969 E.0331
G1 X128.052 Y13.847 E.03317
G1 X143.519 Y13.848 E.48496
G1 X144.516 Y13.963 E.03147
G1 X145.469 Y14.246 E.03117
G1 X146.408 Y14.721 E.03299
G1 X147.199 Y15.319 E.03109
G1 X147.899 Y16.075 E.0323
G1 X148.489 Y17.017 E.03485
G1 X148.934 Y18.262 E.04145
G1 X149.082 Y19.362 E.0348
G1 X149.076 Y27.864 E.26657
G1 X148.949 Y28.8 E.02962
G1 X148.662 Y29.716 E.0301
G1 X148.112 Y30.75 E.03672
G1 X147.394 Y31.618 E.03532
G1 X146.628 Y32.255 E.03124
G1 X145.762 Y32.75 E.03128
G1 X144.721 Y33.113 E.03457
G1 X143.67 Y33.264 E.03329
G1 X138.907 Y33.271 E.14934
G1 X137.897 Y33.075 E.03226
G1 X136.885 Y32.55 E.03575
G1 X136.885 Y176.754 E4.52142
G1 X137.471 Y176.41 E.02131
G1 X138.807 Y176.054 E.04335
G1 X143.602 Y176.053 E.15034
G1 X144.672 Y176.197 E.03385
G1 X145.717 Y176.552 E.0346
G1 X146.652 Y177.083 E.03371
G1 X147.451 Y177.76 E.03284
G1 X148.073 Y178.514 E.03065
G1 X148.619 Y179.501 E.03537
G1 X149.013 Y180.842 E.04382
G1 X149.083 Y181.609 E.02415
G1 X149.06 Y190.27 E.27156
G1 X148.901 Y191.199 E.02955
G1 X148.587 Y192.095 E.02977
G1 X148.132 Y192.92 E.02954
G1 X147.549 Y193.659 E.02951
G1 X146.768 Y194.355 E.0328
G1 X145.869 Y194.9 E.03296
G1 X144.593 Y195.342 E.04234
G1 X143.6 Y195.469 E.03139
G1 X127.671 Y195.449 E.49944
G1 X126.757 Y195.296 E.02906
G1 X125.906 Y195.006 E.02819
G1 X125.092 Y194.573 E.02891
G1 X124.353 Y194.011 E.02911
G1 X123.64 Y193.241 E.0329
G1 X123.068 Y192.333 E.03365
G1 X122.604 Y191.036 E.04319
G1 X122.46 Y189.931 E.03494
G1 X122.459 Y179.523 E.32634
G1 X104.891 Y179.487 E.55083
G1 X103.627 Y179.097 E.04148
G1 X102.797 Y178.574 E.03076
G1 X102.059 Y177.865 E.03209
G1 X101.452 Y176.984 E.03354
G1 X100.996 Y175.591 E.04596
G1 X100.975 Y168.036 E.23688
G1 X101.169 Y167.14 E.02874
G1 X101.544 Y166.311 E.02853
G1 X102.25 Y165.407 E.03596
G1 X103.675 Y164.374 E.05518
G1 X104.399 Y164.102 E.02425
G1 X105.107 Y163.963 E.02262
G1 X105.98 Y163.95 E.02738
M73 Q0 S180
G1 X109.458 Y164.833 E.11251
G1 X109.458 Y44.488 E3.77333
G1 X105.98 Y45.371 E.11251
G1 X105.107 Y45.358 E.02738
G1 X104.398 Y45.219 E.02265
G1 X103.72 Y44.971 E.02264
G1 X102.212 Y43.877 E.05841
G1 X101.522 Y42.973 E.03566
G1 X101.169 Y42.181 E.02719
G1 X100.979 Y41.326 E.02746
G1 X100.958 Y34.002 E.22964
G1 X101.141 Y33.278 E.02341
G1 X101.503 Y33.371 F10800
G1 F600
G1 X101.648 Y32.806 E.01829
G1 X102.298 Y31.751 E.03885
G1 X103.416 Y30.758 E.04688
G1 X105.034 Y30.194 E.05373
G1 X122.836 Y30.174 E.55817
G1 X122.84 Y19.365 E.33891
G1 X122.959 Y18.416 E.02999
G1 X123.337 Y17.303 E.03686
G1 X123.929 Y16.325 E.03584
G1 X124.665 Y15.537 E.03381
G1 X125.358 Y15.026 E.027
G1 X126.149 Y14.622 E.02785
G1 X127.062 Y14.341 E.02995
G1 X128.063 Y14.224 E.0316
G1 X143.508 Y14.225 E.48427
G1 X144.455 Y14.336 E.0299
G1 X145.345 Y14.603 E.02913
G1 X146.195 Y15.032 E.02985
G1 X146.934 Y15.588 E.029
G1 X147.611 Y16.318 E.03122
G1 X148.141 Y17.164 E.0313
G1 X148.573 Y18.37 E.04017
G1 X148.705 Y19.374 E.03175
G1 X148.699 Y27.851 E.26579
G1 X148.578 Y28.732 E.02788
G1 X148.308 Y29.586 E.02808
G1 X147.808 Y30.525 E.03336
G1 X147.138 Y31.34 E.03308
G1 X146.425 Y31.936 E.02914
G1 X145.621 Y32.4 E.02911
G1 X144.614 Y32.751 E.03344
M73 P1 R178
G1 X143.631 Y32.889 E.03112
G1 X138.925 Y32.894 E.14755
G1 X137.999 Y32.711 E.0296
G1 X136.508 Y31.919 E.05294
G1 X136.508 Y177.437 E4.56261
G1 X137.599 Y176.766 E.04016
M73 P1 R177
M73 Q1 S180
G1 X138.832 Y176.431 E.04006
G1 X143.564 Y176.429 E.14837
G1 X144.603 Y176.569 E.03287
G1 X145.578 Y176.902 E.0323
G1 X146.45 Y177.401 E.0315
G1 X147.171 Y178.014 E.02967
G1 X147.751 Y178.712 E.02845
G1 X148.279 Y179.665 E.03416
G1 X148.639 Y180.895 E.04018
G1 X148.706 Y181.617 E.02274
G1 X148.685 Y190.223 E.26984
G1 X148.54 Y191.091 E.02759
G1 X148.249 Y191.927 E.02775
G1 X147.81 Y192.724 E.02853
G1 X147.264 Y193.411 E.02751
G1 X146.532 Y194.061 E.03069
G1 X145.692 Y194.566 E.03073
G1 X144.49 Y194.979 E.03985
G1 X143.589 Y195.092 E.02847
G1 X127.717 Y195.075 E.49766
G1 X126.864 Y194.934 E.02711
G1 X126.043 Y194.654 E.0272
G1 X125.283 Y194.248 E.02702
G1 X124.595 Y193.721 E.02717
G1 X123.93 Y192.998 E.0308
G1 X123.399 Y192.151 E.03134
G1 X122.966 Y190.929 E.04065
G1 X122.837 Y189.919 E.03193
G1 X122.836 Y179.146 E.33778
G1 X104.974 Y179.118 E.56005
G1 X103.806 Y178.764 E.03827
G1 X103.015 Y178.265 E.02932
G1 X102.335 Y177.606 E.02969
G1 X101.801 Y176.841 E.02925
G1 X101.364 Y175.502 E.04416
G1 X101.352 Y168.056 E.23346
G1 X101.522 Y167.275 E.02506
G1 X101.857 Y166.522 E.02584
G1 X102.494 Y165.696 E.03271
G1 X103.875 Y164.695 E.05348
G1 X104.487 Y164.469 E.02046
G1 X105.133 Y164.339 E.02066
G1 X105.913 Y164.322 E.02446
G1 X109.43 Y165.215 E.11377
G1 X109.835 Y165.19 E.01272
G1 X109.835 Y44.131 E3.79572
G1 X109.43 Y44.106 E.01272
M73 Q1 S179
G1 X105.913 Y44.999 E.11377
G1 X105.133 Y44.982 E.02446
G1 X104.487 Y44.852 E.02066
G1 X103.875 Y44.626 E.02046
G1 X102.494 Y43.625 E.05348
G1 X101.857 Y42.799 E.03271
G1 X101.522 Y42.046 E.02584
G1 X101.352 Y41.266 E.02503
G1 X101.335 Y34.026 E.22701
G1 X101.488 Y33.429 E.01932
G1 X101.847 Y33.521 F10800
G1 F600
G1 X101.985 Y32.978 E.01757
G1 X102.581 Y32.002 E.03586
G1 X103.621 Y31.076 E.04366
G1 X105.127 Y30.561 E.0499
G1 X123.213 Y30.551 E.56707
G1 X123.217 Y19.377 E.35035
G1 X123.331 Y18.482 E.02829
G1 X123.671 Y17.48 E.03318
G1 X124.219 Y16.566 E.03341
G1 X124.903 Y15.83 E.0315
G1 X125.569 Y15.339 E.02594
G1 X126.305 Y14.966 E.02587
G1 X127.155 Y14.707 E.02786
G1 X128.073 Y14.601 E.02897
G1 X143.498 Y14.602 E.48364
G1 X144.363 Y14.702 E.0273
G1 X145.22 Y14.959 E.02805
G1 X146.009 Y15.36 E.02775
G1 X146.692 Y15.878 E.02688
G1 X147.321 Y16.56 E.02909
G1 X147.81 Y17.345 E.029
G1 X148.21 Y18.476 E.03761
G1 X148.328 Y19.386 E.02877
G1 X148.322 Y27.837 E.26498
G1 X148.207 Y28.664 E.02618
G1 X147.954 Y29.455 E.02604
G1 X147.485 Y30.331 E.03116
G1 X146.883 Y31.062 E.02969
G1 X146.197 Y31.636 E.02805
G1 X145.449 Y32.064 E.02702
G1 X144.543 Y32.38 E.03009
G1 X143.617 Y32.512 E.02933
G1 X138.942 Y32.517 E.14658
G1 X138.151 Y32.365 E.02526
G1 X136.949 Y31.726 E.04268
G1 X136.131 Y30.927 E.03585
G1 X136.131 Y178.413 E4.62432
G1 X136.912 Y177.632 E.03463
M73 P1 R176
G1 X137.727 Y177.122 E.03014
G1 X138.859 Y176.808 E.03683
G1 X143.528 Y176.804 E.14639
G1 X144.499 Y176.931 E.0307
G1 X145.438 Y177.253 E.03112
G1 X146.246 Y177.719 E.02925
G1 X146.893 Y178.269 E.02663
G1 X147.43 Y178.911 E.02624
G1 X147.939 Y179.829 E.03291
G1 X148.266 Y180.948 E.03655
G1 X148.329 Y181.625 E.02132
G1 X148.311 Y190.177 E.26814
G1 X148.178 Y190.984 E.02564
G1 X147.91 Y191.76 E.02574
G1 X147.504 Y192.502 E.02652
G1 X146.979 Y193.163 E.02647
G1 X146.296 Y193.767 E.02859
G1 X145.517 Y194.232 E.02845
G1 X144.387 Y194.615 E.03741
G1 X143.578 Y194.715 E.02556
G1 X127.762 Y194.7 E.4959
G1 X126.969 Y194.572 E.02519
G1 X126.207 Y194.314 E.02522
G1 X125.475 Y193.923 E.02602
G1 X124.839 Y193.433 E.02517
G1 X124.22 Y192.757 E.02874
G1 X123.73 Y191.97 E.02907
G1 X123.329 Y190.824 E.03807
G1 X123.215 Y189.907 E.02897
G1 X123.213 Y178.77 E.34919
G1 X105.054 Y178.749 E.56936
G1 X103.985 Y178.431 E.03497
G1 X103.233 Y177.957 E.02787
G1 X102.611 Y177.349 E.02727
G1 X102.151 Y176.696 E.02504
G1 X101.731 Y175.413 E.04233
G1 X101.725 Y168.116 E.22879
G1 X101.886 Y167.375 E.02378
G1 X102.191 Y166.698 E.02328
G1 X102.774 Y165.95 E.02974
G1 X104.03 Y165.039 E.04865
G1 X105.163 Y164.716 E.03694
G1 X105.847 Y164.694 E.02146
G1 X109.394 Y165.595 E.11475
G1 X110.212 Y165.641 E.02569
G1 X110.212 Y43.68 E3.824
G1 X109.394 Y43.726 E.02569
G1 X105.847 Y44.627 E.11475
G1 X105.163 Y44.606 E.02146
G1 X104.03 Y44.282 E.03695
G1 X102.774 Y43.372 E.04863
G1 X102.191 Y42.623 E.02976
G1 X101.886 Y41.946 E.02328
G1 X101.725 Y41.205 E.02378
G1 X101.712 Y34.048 E.2244
G1 X101.832 Y33.579 E.01518
G1 X102.194 Y33.673 F10800
G1 F600
G1 X102.342 Y33.101 E.01853
G1 X102.863 Y32.253 E.03121
G1 X103.824 Y31.396 E.04037
G1 X105.217 Y30.928 E.04608
G1 X123.59 Y30.928 E.57607
G1 X123.594 Y19.389 E.3618
G1 X123.703 Y18.55 E.02653
G1 X124.021 Y17.621 E.03079
G1 X124.509 Y16.808 E.02973
G1 X125.142 Y16.122 E.02927
G1 X125.754 Y15.668 E.02389
G1 X126.46 Y15.31 E.02482
G1 X127.247 Y15.073 E.02577
G1 X128.084 Y14.978 E.02641
G1 X143.487 Y14.979 E.48295
G1 X144.302 Y15.074 E.02573
G1 X145.094 Y15.315 E.02596
G1 X145.821 Y15.688 E.02562
G1 X146.451 Y16.167 E.02481
G1 X147.01 Y16.775 E.0259
G1 X147.478 Y17.527 E.02777
G1 X147.848 Y18.581 E.03502
G1 X147.951 Y19.397 E.02579
G1 X147.944 Y27.824 E.26422
G1 X147.842 Y28.566 E.02348
G1 X147.614 Y29.292 E.02386
G1 X147.161 Y30.136 E.03003
G1 X146.627 Y30.785 E.02635
G1 X145.994 Y31.317 E.02593
G1 X145.277 Y31.728 E.02591
G1 X144.471 Y32.009 E.02676
G1 X143.603 Y32.135 E.0275
G1 X138.992 Y32.143 E.14457
G1 X138.301 Y32.017 E.02202
G1 X137.152 Y31.407 E.04079
G1 X136.565 Y30.82 E.02603
G1 X136.023 Y29.994 E.03098
G1 X135.754 Y30.074 E.0088
G1 X135.754 Y179.264 E4.67775
G1 X136.028 Y179.341 E.00892
M73 P2 R176
M73 Q2 S178
G1 X136.491 Y178.589 E.02769
G1 X137.131 Y177.94 E.02858
G1 X137.903 Y177.457 E.02855
G1 X138.932 Y177.178 E.03343
G1 X143.515 Y177.181 E.1437
G1 X144.43 Y177.303 E.02894
G1 X145.297 Y177.603 E.02877
G1 X146.042 Y178.036 E.02702
G1 X146.615 Y178.524 E.0236
G1 X147.11 Y179.11 E.02405
G1 X147.599 Y179.993 E.03165
G1 X147.892 Y181.001 E.03291
G1 X147.952 Y181.634 E.01994
G1 X147.936 Y190.131 E.26642
G1 X147.808 Y190.906 E.02463
G1 X147.559 Y191.621 E.02374
G1 X147.182 Y192.305 E.02449
G1 X146.695 Y192.915 E.02447
G1 X146.087 Y193.452 E.02543
G1 X145.34 Y193.898 E.02728
G1 X144.322 Y194.244 E.03371
G1 X143.566 Y194.338 E.02389
G1 X127.806 Y194.326 E.49414
G1 X127.075 Y194.21 E.02321
G1 X126.343 Y193.962 E.02423
G1 X125.668 Y193.598 E.02405
G1 X125.083 Y193.145 E.0232
G1 X124.511 Y192.517 E.02663
G1 X124.063 Y191.79 E.02678
G1 X123.692 Y190.72 E.03551
G1 X123.592 Y189.896 E.02603
G1 X123.59 Y178.393 E.36067
G1 X105.133 Y178.379 E.57871
G1 X104.162 Y178.097 E.0317
G1 X103.481 Y177.673 E.02515
G1 X102.886 Y177.09 E.02612
G1 X102.5 Y176.551 E.02079
G1 X102.099 Y175.324 E.04047
G1 X102.098 Y168.175 E.22415
G1 X102.238 Y167.511 E.02128
G1 X102.525 Y166.875 E.02188
G1 X103.054 Y166.204 E.02679
G1 X104.187 Y165.383 E.04387
G1 X105.195 Y165.091 E.0329
G1 X105.782 Y165.067 E.01842
G1 X109.362 Y165.976 E.11581
G1 X110.59 Y166.071 E.03862
M73 P2 R175
G1 X110.59 Y43.25 E3.85097
G1 X109.362 Y43.346 E.03862
G1 X105.782 Y44.254 E.1158
G1 X105.195 Y44.23 E.01842
G1 X104.187 Y43.938 E.0329
G1 X103.054 Y43.117 E.04387
G1 X102.525 Y42.447 E.02677
G1 X102.238 Y41.81 E.02191
G1 X102.097 Y41.146 E.02128
G1 X102.09 Y34.073 E.22177
G1 X102.178 Y33.731 E.01107
G1 X102.539 Y33.827 F10800
G1 F600
G1 X102.699 Y33.225 E.01953
G1 X103.145 Y32.504 E.02658
G1 X104.026 Y31.715 E.03708
G1 X105.247 Y31.305 E.04038
G1 X123.967 Y31.305 E.58695
G1 X123.971 Y19.402 E.37321
G1 X124.074 Y18.618 E.02479
G1 X124.355 Y17.797 E.02721
G1 X124.801 Y17.048 E.02733
G1 X125.382 Y16.414 E.02696
G1 X125.965 Y15.981 E.02277
G1 X126.614 Y15.655 E.02277
G1 X127.338 Y15.439 E.02369
G1 X128.094 Y15.355 E.02385
G1 X143.476 Y15.356 E.48229
G1 X144.21 Y15.44 E.02316
G1 X144.938 Y15.659 E.02384
G1 X145.606 Y15.998 E.02349
G1 X146.208 Y16.457 E.02374
G1 X146.72 Y17.016 E.02377
G1 X147.146 Y17.706 E.02543
G1 X147.485 Y18.685 E.03248
G1 X147.573 Y19.408 E.02284
G1 X147.567 Y27.811 E.26347
G1 X147.477 Y28.47 E.02085
G1 X147.272 Y29.132 E.02173
G1 X146.857 Y29.913 E.02773
G1 X146.37 Y30.508 E.02411
G1 X145.765 Y31.018 E.02481
G1 X145.107 Y31.391 E.02372
G1 X144.365 Y31.647 E.02461
G1 X143.589 Y31.758 E.02458
G1 X139.009 Y31.766 E.1436
G1 X138.399 Y31.652 E.01946
G1 X137.399 Y31.12 E.03552
G1 X136.846 Y30.568 E.0245
G1 X136.442 Y29.945 E.02328
G1 X136.201 Y29.19 E.02485
G1 X136.179 Y26.766 E.07601
G1 X135.377 Y26.766 E.02515
G1 X135.377 Y182.555 E4.88465
G1 X136.175 Y182.555 E.02502
M73 Q2 S177
G1 X136.196 Y180.157 E.07519
G1 X136.425 Y179.416 E.02432
G1 X136.777 Y178.836 E.02127
G1 X137.353 Y178.245 E.02588
G1 X138.032 Y177.812 E.02525
G1 X138.958 Y177.555 E.03013
G1 X143.502 Y177.558 E.14247
G1 X144.361 Y177.674 E.02718
G1 X145.123 Y177.938 E.02529
G1 X145.837 Y178.353 E.02589
G1 X146.358 Y178.8 E.02152
G1 X146.789 Y179.309 E.02091
G1 X147.258 Y180.157 E.03038
G1 X147.518 Y181.055 E.02931
G1 X147.575 Y181.643 E.01852
G1 X147.561 Y190.086 E.26472
G1 X147.447 Y190.798 E.02261
G1 X147.209 Y191.481 E.02268
G1 X146.861 Y192.108 E.02248
G1 X146.412 Y192.666 E.02246
G1 X145.852 Y193.157 E.02335
G1 X145.165 Y193.564 E.02504
G1 X144.255 Y193.872 E.03012
G1 X143.554 Y193.961 E.02216
G1 X127.85 Y193.951 E.49239
G1 X127.179 Y193.847 E.02129
G1 X126.506 Y193.622 E.02225
G1 X125.886 Y193.29 E.02205
G1 X125.327 Y192.857 E.02217
G1 X124.803 Y192.277 E.02451
G1 X124.395 Y191.612 E.02446
G1 X124.055 Y190.618 E.03294
G1 X123.969 Y189.885 E.02314
G1 X123.967 Y178.016 E.37214
G1 X105.21 Y178.009 E.58811
G1 X104.338 Y177.762 E.02842
G1 X103.699 Y177.364 E.0236
G1 X103.161 Y176.832 E.02372
G1 X102.849 Y176.405 E.01658
G1 X102.467 Y175.236 E.03856
G1 X102.47 Y168.234 E.21954
G1 X102.603 Y167.61 E.02
G1 X102.858 Y167.054 E.01918
