; generated by PrusaSlicer 2.7.1+linux-x64-GTK3 on 2025-12-13 at 05:46:15 UTC

; 

; external perimeters extrusion width = 0.45mm
; perimeters extrusion width = 0.45mm
; infill extrusion width = 0.45mm
; solid infill extrusion width = 0.45mm
; top infill extrusion width = 0.40mm
; first layer extrusion width = 0.42mm

M73 P0 R5
M73 Q0 S5
M201 X1000 Y1000 Z1000 E5000 ; sets maximum accelerations, mm/sec^2
M203 X200 Y200 Z12 E120 ; sets maximum feedrates, mm / sec
M204 S1250 T1250 ; sets acceleration (S) and retract acceleration (R), mm/sec^2
M205 X8.00 Y8.00 Z0.40 E1.50 ; sets the jerk limits, mm/sec
M205 S0 T0 ; sets the minimum extruding and travel feed rate, mm/sec
;TYPE:Custom
M115 U3.4.0 ; tell printer latest fw version
M83  ; extruder relative mode
M104 S230 ; set extruder temp
M140 S95 ; set bed temp
M190 S95 ; wait for bed temp
M109 S230 ; wait for extruder temp
G28 W ; home all without mesh bed level
G80 ; mesh bed leveling
G1 Y-3.0 F1000.0 ; go outside print area
G92 E0.0
G1 X60.0 E9.0  F1000.0 ; intro line
G1 X100.0 E12.5  F1000.0 ; intro line
M73 P1 R5
M73 Q1 S5
G92 E0.0
M221 S95
G21 ; set units to millimeters
G90 ; use absolute coordinates
M83 ; use relative distances for extrusion
M900 K45; Filament gcode
M107
;LAYER_CHANGE
;Z:0.2
;HEIGHT:0.2
;BEFORE_LAYER_CHANGE
G92 E0.0
;0.2


G1 E-1.5 F2700
G1 Z.2 F10800
;AFTER_LAYER_CHANGE
;0.2
G1 X116.919 Y99.024
G1 Z.2
M73 P2 R5
M73 Q2 S5
G1 E1.5 F2700
M204 S1000
;TYPE:Skirt/Brim
;WIDTH:0.42
G1 F600
G1 X118.175 Y97.616 E.05916
G1 X118.901 Y97.01 E.02965
G1 X119.82 Y96.387 E.03481
G1 X121.521 Y95.566 E.05922
G1 X122.423 Y95.284 E.02963
G1 X123.511 Y95.06 E.03483
G1 X125.396 Y94.953 E.0592
G1 X126.337 Y95.038 E.02962
G1 X127.428 Y95.247 E.03483
G1 X129.211 Y95.869 E.05921
G1 X130.048 Y96.308 E.02963
G1 X130.976 Y96.919 E.03484
G1 X132.384 Y98.175 E.05916
G1 X132.99 Y98.901 E.02965
G1 X133.613 Y99.82 E.03481
G1 X134.434 Y101.521 E.05922
G1 X134.716 Y102.423 E.02963
G1 X134.94 Y103.511 E.03483
G1 X135.047 Y105.396 E.0592
G1 X134.962 Y106.337 E.02962
G1 X134.753 Y107.428 E.03483
M73 Q3 S5
G1 X134.131 Y109.211 E.05921
G1 X133.692 Y110.048 E.02963
G1 X133.081 Y110.976 E.03484
M73 P3 R5
G1 X131.825 Y112.384 E.05916
G1 X131.099 Y112.99 E.02965
G1 X130.18 Y113.613 E.03481
G1 X128.479 Y114.434 E.05922
G1 X127.577 Y114.716 E.02963
G1 X126.489 Y114.94 E.03483
G1 X124.604 Y115.047 E.0592
G1 X123.663 Y114.962 E.02962
G1 X122.572 Y114.753 E.03483
G1 X120.789 Y114.131 E.05921
G1 X119.952 Y113.692 E.02963
G1 X119.024 Y113.081 E.03484
G1 X117.616 Y111.825 E.05916
G1 X117.01 Y111.099 E.02965
G1 X116.387 Y110.18 E.03481
G1 X115.566 Y108.479 E.05922
G1 X115.284 Y107.577 E.02963
G1 X115.06 Y106.489 E.03483
G1 X114.953 Y104.604 E.0592
G1 X115.038 Y103.663 E.02962
G1 X115.247 Y102.572 E.03483
G1 X115.869 Y100.789 E.05921
G1 X116.308 Y99.952 E.02963
M73 Q4 S5
G1 X116.886 Y99.075 E.03293
G1 X117.211 Y99.268 F10800
G1 F600
M73 P4 R5
G1 X117.227 Y99.242 E.00096
G1 X118.435 Y97.889 E.05687
G1 X120.022 Y96.705 E.06208
G1 X121.656 Y95.918 E.05687
G1 X123.575 Y95.432 E.06207
G1 X125.387 Y95.33 E.0569
G1 X127.345 Y95.615 E.06204
G1 X129.058 Y96.214 E.0569
G1 X130.758 Y97.227 E.06205
G1 X132.111 Y98.435 E.05687
G1 X133.295 Y100.022 E.06208
G1 X134.082 Y101.656 E.05687
G1 X134.568 Y103.575 E.06207
G1 X134.671 Y105.387 E.05691
G1 X134.385 Y107.345 E.06204
G1 X133.786 Y109.058 E.0569
G1 X132.773 Y110.758 E.06205
G1 X131.565 Y112.111 E.05687
M73 Q5 S5
G1 X129.978 Y113.295 E.06208
G1 X128.344 Y114.082 E.05687
M73 P5 R5
G1 X126.425 Y114.568 E.06207
G1 X124.613 Y114.671 E.05691
G1 X122.655 Y114.385 E.06204
G1 X120.942 Y113.786 E.0569
G1 X119.242 Y112.773 E.06205
G1 X117.889 Y111.565 E.05687
G1 X116.705 Y109.978 E.06208
G1 X115.918 Y108.344 E.05687
G1 X115.432 Y106.425 E.06207
G1 X115.33 Y104.613 E.0569
G1 X115.615 Y102.655 E.06204
G1 X116.214 Y100.942 E.0569
G1 X117.18 Y99.32 E.05919
G1 X117.503 Y99.513 F10800
G1 F600
G1 X117.535 Y99.459 E.00197
G1 X118.695 Y98.162 E.05456
G1 X120.224 Y97.024 E.05976
G1 X121.792 Y96.27 E.05455
M73 Q6 S5
G1 X123.64 Y95.803 E.05976
G1 X125.377 Y95.706 E.05455
M73 P6 R5
G1 X127.263 Y95.983 E.05977
G1 X128.905 Y96.558 E.05455
G1 X130.541 Y97.535 E.05975
G1 X131.838 Y98.695 E.05456
G1 X132.976 Y100.224 E.05976
G1 X133.73 Y101.792 E.05455
G1 X134.197 Y103.64 E.05976
G1 X134.294 Y105.377 E.05455
G1 X134.017 Y107.263 E.05977
G1 X133.442 Y108.905 E.05455
G1 X132.465 Y110.541 E.05975
G1 X131.305 Y111.838 E.05456
G1 X129.776 Y112.976 E.05976
G1 X128.208 Y113.73 E.05455
G1 X126.36 Y114.197 E.05976
G1 X124.623 Y114.294 E.05455
G1 X122.737 Y114.017 E.05977
M73 Q7 S5
G1 X121.095 Y113.442 E.05455
M73 P7 R5
G1 X119.459 Y112.465 E.05975
G1 X118.162 Y111.305 E.05456
G1 X117.024 Y109.776 E.05976
G1 X116.27 Y108.208 E.05455
G1 X115.803 Y106.36 E.05976
G1 X115.706 Y104.623 E.05455
G1 X115.983 Y102.737 E.05977
G1 X116.558 Y101.095 E.05455
G1 X117.472 Y99.564 E.05591
;WIPE_START
G1 F8640
G1 X117.503 Y99.513 E-.01772
G1 X117.535 Y99.459 E-.01863
G1 X118.695 Y98.162 E-.51658
G1 X120.224 Y97.024 E-.56585
G1 X121.381 Y96.467 E-.38122
;WIPE_END
G1 Z.8 F10800
G1 X120.17 Y102.113
G1 Z.2
G1 E1.5 F2700
;TYPE:Perimeter
;WIDTH:0.419999
G1 F600
G1 X120.489 Y101.638 E.01794
G1 X120.836 Y101.214 E.01718
G1 X121.218 Y100.832 E.01694
G1 X121.642 Y100.485 E.01718
G1 X122.119 Y100.168 E.01796
G1 X122.602 Y99.908 E.0172
G1 X123.095 Y99.704 E.01673
G1 X123.669 Y99.534 E.01877
G1 X124.174 Y99.434 E.01614
G1 X124.764 Y99.379 E.01858
G1 X125.294 Y99.379 E.01662
G1 X125.854 Y99.439 E.01766
G1 X126.383 Y99.546 E.01692
G1 X126.905 Y99.704 E.0171
G1 X127.398 Y99.908 E.01673
M73 Q8 S5
G1 X127.917 Y100.189 E.0185
G1 X128.364 Y100.489 E.01688
G1 X128.783 Y100.833 E.017
G1 X129.167 Y101.217 E.01703
G1 X129.515 Y101.642 E.01722
M73 P8 R5
G1 X129.832 Y102.119 E.01796
G1 X130.092 Y102.602 E.0172
G1 X130.296 Y103.095 E.01673
G1 X130.464 Y103.661 E.01851
G1 X130.568 Y104.189 E.01687
G1 X130.621 Y104.729 E.01701
G1 X130.621 Y105.271 E.01699
G1 X130.567 Y105.818 E.01723
G1 X130.454 Y106.38 E.01797
G1 X130.296 Y106.905 E.01719
G1 X130.092 Y107.398 E.01673
G1 X129.811 Y107.917 E.0185
G1 X129.511 Y108.364 E.01688
G1 X129.167 Y108.783 E.017
G1 X128.783 Y109.167 E.01703
G1 X128.358 Y109.515 E.01722
G1 X127.881 Y109.832 E.01796
G1 X127.398 Y110.092 E.0172
G1 X126.905 Y110.296 E.01673
G1 X126.339 Y110.464 E.01851
G1 X125.811 Y110.568 E.01687
G1 X125.271 Y110.621 E.01701
G1 X124.729 Y110.621 E.01699
G1 X124.182 Y110.567 E.01723
G1 X123.621 Y110.454 E.01794
G1 X123.095 Y110.296 E.01722
G1 X122.602 Y110.092 E.01673
G1 X122.083 Y109.811 E.0185
G1 X121.636 Y109.511 E.01688
G1 X121.217 Y109.167 E.017
G1 X120.833 Y108.783 E.01703
G1 X120.485 Y108.358 E.01722
G1 X120.168 Y107.881 E.01796
G1 X119.908 Y107.398 E.0172
G1 X119.704 Y106.905 E.01673
G1 X119.536 Y106.339 E.01851
G1 X119.432 Y105.811 E.01687
G1 X119.379 Y105.271 E.01701
G1 X119.379 Y104.729 E.01699
G1 X119.433 Y104.182 E.01723
G1 X119.546 Y103.62 E.01797
G1 X119.704 Y103.095 E.01719
G1 X119.911 Y102.597 E.01691
G1 X120.142 Y102.166 E.01533
G1 X119.847 Y101.919 F10800
G1 F600
G1 X120.185 Y101.414 E.01905
G1 X120.557 Y100.96 E.0184
G1 X120.965 Y100.553 E.01807
G1 X121.418 Y100.182 E.01836
G1 X121.924 Y99.845 E.01906
G1 X122.441 Y99.568 E.01839
G1 X122.968 Y99.349 E.01789
G1 X123.578 Y99.168 E.01995
G1 X124.118 Y99.061 E.01726
G1 X124.808 Y99 E.02172
G1 X125.314 Y99.002 E.01587
M73 Q9 S5
G1 X125.911 Y99.066 E.01883
G1 X126.475 Y99.18 E.01804
G1 X127.032 Y99.349 E.01825
G1 X127.559 Y99.568 E.01789
G1 X128.112 Y99.866 E.0197
M73 P9 R5
G1 X128.588 Y100.186 E.01798
G1 X129.036 Y100.554 E.01818
G1 X129.446 Y100.964 E.01818
G1 X129.818 Y101.417 E.01838
G1 X130.155 Y101.924 E.01909
G1 X130.432 Y102.441 E.01839
G1 X130.651 Y102.968 E.01789
G1 X130.83 Y103.57 E.01969
G1 X130.941 Y104.134 E.01802
G1 X130.998 Y104.71 E.01815
G1 X130.998 Y105.29 E.01819
G1 X130.94 Y105.873 E.01837
G1 X130.82 Y106.47 E.01909
G1 X130.651 Y107.032 E.0184
G1 X130.432 Y107.559 E.01789
G1 X130.134 Y108.112 E.0197
G1 X129.814 Y108.588 E.01798
G1 X129.446 Y109.036 E.01818
G1 X129.036 Y109.446 E.01818
G1 X128.583 Y109.818 E.01838
G1 X128.076 Y110.155 E.01909
G1 X127.559 Y110.432 E.01839
G1 X127.032 Y110.651 E.01789
G1 X126.43 Y110.83 E.01969
G1 X125.866 Y110.941 E.01802
G1 X125.29 Y110.998 E.01815
G1 X124.71 Y110.998 E.01819
G1 X124.127 Y110.94 E.01837
G1 X123.53 Y110.82 E.01909
G1 X122.968 Y110.651 E.0184
G1 X122.441 Y110.432 E.01789
G1 X121.888 Y110.134 E.0197
G1 X121.412 Y109.814 E.01798
G1 X120.964 Y109.446 E.01818
G1 X120.554 Y109.036 E.01818
G1 X120.182 Y108.583 E.01838
G1 X119.845 Y108.076 E.01909
G1 X119.568 Y107.559 E.01839
G1 X119.349 Y107.032 E.01789
G1 X119.17 Y106.43 E.01969
G1 X119.059 Y105.866 E.01802
G1 X119.002 Y105.29 E.01815
G1 X119.002 Y104.71 E.01819
G1 X119.06 Y104.127 E.01837
G1 X119.18 Y103.53 E.01909
G1 X119.349 Y102.968 E.0184
G1 X119.57 Y102.436 E.01806
G1 X119.818 Y101.972 E.0165
G1 X119.523 Y101.725 F10800
;TYPE:External perimeter
G1 F600
G1 X119.882 Y101.191 E.02018
G1 X120.278 Y100.707 E.01961
G1 X120.712 Y100.273 E.01924
M73 Q10 S5
G1 X121.193 Y99.879 E.0195
G1 X121.729 Y99.522 E.02019
G1 X122.28 Y99.227 E.0196
G1 X122.841 Y98.994 E.01905
G1 X123.487 Y98.802 E.02113
M73 P10 R5
G1 X124.063 Y98.688 E.01841
G1 X124.792 Y98.623 E.02295
G1 X125.334 Y98.626 E.01699
G1 X125.967 Y98.694 E.01996
G1 X126.566 Y98.814 E.01915
G1 X127.159 Y98.994 E.01943
G1 X127.72 Y99.227 E.01905
G1 X128.306 Y99.543 E.02087
G1 X128.813 Y99.883 E.01914
G1 X129.29 Y100.275 E.01936
G1 X129.726 Y100.71 E.01931
G1 X130.121 Y101.193 E.01956
G1 X130.478 Y101.729 E.02019
G1 X130.773 Y102.28 E.0196
G1 X131.006 Y102.841 E.01905
G1 X131.196 Y103.479 E.02087
G1 X131.314 Y104.078 E.01914
G1 X131.375 Y104.692 E.01935
G1 X131.375 Y105.308 E.01931
G1 X131.313 Y105.929 E.01957
G1 X131.186 Y106.561 E.02021
G1 X131.006 Y107.159 E.01958
G1 X130.773 Y107.72 E.01905
G1 X130.457 Y108.306 E.02087
G1 X130.117 Y108.813 E.01914
G1 X129.725 Y109.29 E.01936
G1 X129.29 Y109.726 E.01931
G1 X128.807 Y110.121 E.01956
G1 X128.271 Y110.478 E.02019
G1 X127.72 Y110.773 E.0196
G1 X127.159 Y111.006 E.01905
G1 X126.521 Y111.196 E.02087
G1 X125.922 Y111.314 E.01914
G1 X125.308 Y111.375 E.01935
G1 X124.692 Y111.375 E.01931
G1 X124.071 Y111.313 E.01957
G1 X123.439 Y111.186 E.02021
G1 X122.841 Y111.006 E.01958
G1 X122.28 Y110.773 E.01905
G1 X121.694 Y110.457 E.02087
M73 P10 R4
G1 X121.187 Y110.117 E.01914
G1 X120.71 Y109.725 E.01936
G1 X120.275 Y109.29 E.01929
G1 X119.879 Y108.807 E.01958
G1 X119.522 Y108.271 E.02019
G1 X119.227 Y107.72 E.0196
G1 X118.994 Y107.159 E.01905
G1 X118.804 Y106.521 E.02087
G1 X118.686 Y105.922 E.01914
M73 Q11 S5
G1 X118.625 Y105.308 E.01935
G1 X118.625 Y104.692 E.01931
M73 Q11 S4
G1 X118.687 Y104.071 E.01957
G1 X118.814 Y103.439 E.02021
M73 P11 R4
G1 X118.994 Y102.841 E.01958
G1 X119.229 Y102.274 E.01924
G1 X119.495 Y101.778 E.01765
;WIPE_START
G1 F8640
G1 X119.523 Y101.725 E-.0178
G1 X119.882 Y101.191 E-.19103
G1 X120.278 Y100.707 E-.18565
G1 X120.712 Y100.273 E-.18221
G1 X121.193 Y99.879 E-.18459
G1 X121.729 Y99.522 E-.19119
G1 X122.28 Y99.227 E-.18555
G1 X122.841 Y98.994 E-.18034
G1 X123.428 Y98.819 E-.18164
;WIPE_END
G1 Z.8 F10800
G1 X129.725 Y102.16
G1 Z.2
G1 E1.5 F2700
;TYPE:Solid infill
;WIDTH:0.425009
G1 F600
G1 X128.749 Y101.184 E.04385
G1 X128.402 Y100.87 E.01487
G1 X127.987 Y100.562 E.01642
G1 X127.512 Y100.275 E.01763
G1 X127.11 Y100.085 E.01413
G1 X129.915 Y102.89 E.12603
G1 X130.117 Y103.436 E.0185
G1 X130.182 Y103.698 E.00858
G1 X126.301 Y99.817 E.17438
G1 X126.061 Y99.757 E.00786
G1 X125.636 Y99.692 E.01366
G1 X130.308 Y104.364 E.20992
G1 X130.349 Y104.945 E.0185
G1 X125.054 Y99.65 E.23791
G1 X124.535 Y99.672 E.0165
M73 P12 R4
M73 Q12 S4
G1 X130.329 Y105.466 E.26033
G1 X130.263 Y105.94 E.0152
G1 X124.06 Y99.737 E.27871
G1 X123.62 Y99.837 E.01434
G1 X130.163 Y106.38 E.29398
G1 X130.035 Y106.793 E.01374
G1 X123.207 Y99.965 E.30679
M73 Q13 S4
G1 X122.82 Y100.118 E.01322
M73 P13 R4
G1 X129.882 Y107.18 E.3173
G1 X129.705 Y107.544 E.01286
G1 X122.456 Y100.295 E.3257
G1 X122.119 Y100.498 E.0125
G1 X129.502 Y107.881 E.33172
G1 X129.28 Y108.2 E.01235
M73 P14 R4
M73 Q14 S4
G1 X121.8 Y100.72 E.33608
G1 X121.499 Y100.959 E.01221
G1 X129.041 Y108.501 E.33887
G1 X128.784 Y108.784 E.01215
G1 X121.216 Y101.216 E.34004
G1 X120.959 Y101.499 E.01215
M73 P15 R4
M73 Q15 S4
G1 X128.501 Y109.041 E.33887
G1 X128.2 Y109.28 E.01221
G1 X120.72 Y101.801 E.33606
G1 X120.497 Y102.118 E.01231
G1 X127.881 Y109.502 E.33177
G1 X127.544 Y109.705 E.0125
M73 P16 R4
M73 Q16 S4
G1 X120.294 Y102.456 E.32573
G1 X120.118 Y102.82 E.01285
G1 X127.18 Y109.882 E.3173
G1 X126.793 Y110.035 E.01322
G1 X119.965 Y103.207 E.30679
G1 X119.837 Y103.62 E.01374
M73 P17 R4
M73 Q17 S4
G1 X126.38 Y110.163 E.29398
G1 X125.94 Y110.263 E.01434
G1 X119.737 Y104.06 E.27871
G1 X119.671 Y104.535 E.01524
G1 X125.465 Y110.329 E.26033
G1 X124.945 Y110.349 E.01653
G1 X119.651 Y105.055 E.23786
G1 X119.692 Y105.636 E.0185
M73 P18 R4
M73 Q18 S4
G1 X124.364 Y110.308 E.20992
G1 X123.974 Y110.25 E.01253
G1 X123.698 Y110.182 E.00903
G1 X119.818 Y106.302 E.17433
G1 X119.883 Y106.564 E.00858
G1 X120.085 Y107.11 E.0185
G1 X122.89 Y109.915 E.12603
G1 X122.488 Y109.725 E.01413
G1 X122.013 Y109.438 E.01763
G1 X121.598 Y109.13 E.01642
G1 X121.25 Y108.815 E.01491
G1 X120.275 Y107.84 E.04381
;LAYER_CHANGE
;Z:0.35
;HEIGHT:0.15
;BEFORE_LAYER_CHANGE
G92 E0.0
;0.35


;WIPE_START
G1 F8640
G1 X121.25 Y108.815 E-.40935
G1 X121.598 Y109.13 E-.13935
G1 X122.013 Y109.438 E-.15343
G1 X122.488 Y109.725 E-.16476
G1 X122.89 Y109.915 E-.132
G1 X121.696 Y108.721 E-.50111
;WIPE_END
G1 Z.35 F10800
;AFTER_LAYER_CHANGE
;0.35
G1 Z.95
G1 X118.346 Y112.477
G1 Z.35
G1 E1.5 F2700
;TYPE:Skirt/Brim
;WIDTH:0.42
G1 F1722
G1 X117.616 Y111.825 E.02367
G1 X117.01 Y111.099 E.02287
G1 X116.387 Y110.18 E.02685
G1 X115.566 Y108.479 E.04568
M73 Q19 S4
G1 X115.284 Y107.577 E.02286
G1 X115.06 Y106.489 E.02687
G1 X114.953 Y104.604 E.04566
G1 X115.038 Y103.663 E.02285
M73 P19 R4
G1 X115.247 Y102.572 E.02687
G1 X115.869 Y100.789 E.04567
G1 X116.308 Y99.952 E.02286
G1 X116.919 Y99.024 E.02687
G1 X118.175 Y97.616 E.04563
G1 X118.901 Y97.01 E.02287
G1 X119.82 Y96.387 E.02685
G1 X121.521 Y95.566 E.04568
G1 X122.423 Y95.284 E.02286
G1 X123.511 Y95.06 E.02687
G1 X125.396 Y94.953 E.04566
G1 X126.337 Y95.038 E.02285
G1 X127.428 Y95.247 E.02687
G1 X129.211 Y95.869 E.04567
G1 X130.048 Y96.308 E.02286
G1 X130.976 Y96.919 E.02687
G1 X132.384 Y98.175 E.04563
G1 X132.99 Y98.901 E.02287
G1 X133.613 Y99.82 E.02685
G1 X134.434 Y101.521 E.04568
G1 X134.716 Y102.423 E.02286
G1 X134.94 Y103.511 E.02687
G1 X135.047 Y105.396 E.04566
G1 X134.962 Y106.337 E.02285
G1 X134.753 Y107.428 E.02687
G1 X134.131 Y109.211 E.04567
G1 X133.692 Y110.048 E.02286
G1 X133.081 Y110.976 E.02687
G1 X131.825 Y112.384 E.04563
G1 X131.099 Y112.99 E.02287
G1 X130.18 Y113.613 E.02685
G1 X128.479 Y114.434 E.04568
G1 X127.577 Y114.716 E.02286
G1 X126.489 Y114.94 E.02687
G1 X124.604 Y115.047 E.04566
G1 X123.663 Y114.962 E.02285
G1 X122.572 Y114.753 E.02687
G1 X120.789 Y114.131 E.04567
G1 X119.952 Y113.692 E.02286
G1 X119.024 Y113.081 E.02687
G1 X118.391 Y112.517 E.0205
G1 X118.641 Y112.237 F10800
G1 F1722
G1 X117.889 Y111.565 E.02439
G1 X116.705 Y109.978 E.04789
G1 X115.918 Y108.344 E.04386
G1 X115.432 Y106.425 E.04788
G1 X115.33 Y104.613 E.04389
G1 X115.615 Y102.655 E.04785
G1 X116.214 Y100.942 E.04389
G1 X117.227 Y99.242 E.04786
G1 X118.435 Y97.889 E.04387
G1 X120.022 Y96.705 E.04789
G1 X121.656 Y95.918 E.04386
G1 X123.575 Y95.432 E.04788
G1 X125.387 Y95.33 E.04389
G1 X127.345 Y95.615 E.04785
G1 X129.058 Y96.214 E.04389
G1 X130.758 Y97.227 E.04786
G1 X132.111 Y98.435 E.04387
G1 X133.295 Y100.022 E.04789
G1 X134.082 Y101.656 E.04386
G1 X134.568 Y103.575 E.04788
M73 Q20 S4
G1 X134.671 Y105.387 E.04389
G1 X134.385 Y107.345 E.04786
G1 X133.786 Y109.058 E.04389
M73 P20 R4
G1 X132.773 Y110.758 E.04786
G1 X131.565 Y112.111 E.04387
G1 X129.978 Y113.295 E.04789
G1 X128.344 Y114.082 E.04386
G1 X126.425 Y114.568 E.04788
G1 X124.613 Y114.671 E.04389
G1 X122.655 Y114.385 E.04786
