; generated by PrusaSlicer 2.7.1+linux-x64-GTK3 on 2025-12-11 at 06:43:21 UTC

; 

; external perimeters extrusion width = 0.45mm
; perimeters extrusion width = 0.45mm
; infill extrusion width = 0.45mm
; solid infill extrusion width = 0.45mm
; top infill extrusion width = 0.40mm
; first layer extrusion width = 0.42mm

; external perimeters extrusion width = 0.45mm
; perimeters extrusion width = 0.45mm
; infill extrusion width = 0.45mm
; solid infill extrusion width = 0.45mm
; top infill extrusion width = 0.40mm
; first layer extrusion width = 0.42mm

M73 P0 R45
M73 Q0 S46
M201 X1000 Y1000 Z1000 E5000 ; sets maximum accelerations, mm/sec^2
M203 X200 Y200 Z12 E120 ; sets maximum feedrates, mm / sec
M204 S1250 T1250 ; sets acceleration (S) and retract acceleration (R), mm/sec^2
M205 X8.00 Y8.00 Z0.40 E1.50 ; sets the jerk limits, mm/sec
M205 S0 T0 ; sets the minimum extruding and travel feed rate, mm/sec
;TYPE:Custom
M115 U3.4.0 ; tell printer latest fw version
M83  ; extruder relative mode
M104 S230 ; set extruder temp
M140 S95 ; set bed temp
M190 S95 ; wait for bed temp
M109 S230 ; wait for extruder temp
G28 W ; home all without mesh bed level
G80 ; mesh bed leveling
G1 Y-3.0 F1000.0 ; go outside print area
G92 E0.0
G1 X60.0 E9.0  F1000.0 ; intro line
G1 X100.0 E12.5  F1000.0 ; intro line
G92 E0.0
M221 S95
G21 ; set units to millimeters
G90 ; use absolute coordinates
M83 ; use relative distances for extrusion
M900 K45; Filament gcode
M107
;LAYER_CHANGE
;Z:0.2
;HEIGHT:0.2
;BEFORE_LAYER_CHANGE
G92 E0.0
;0.2


G1 E-1.5 F2700
G1 Z.2 F10800
;AFTER_LAYER_CHANGE
;0.2
G1 X107.838 Y79.756
G1 Z.2
G1 E1.5 F2700
M204 S1000
;TYPE:Skirt/Brim
;WIDTH:0.42
G1 F600
G1 X108.462 Y78.996 E.03083
G1 X109.326 Y78.172 E.03743
G1 X110.12 Y77.584 E.03098
G1 X111.155 Y76.997 E.03731
G1 X112.067 Y76.619 E.03095
G1 X113.214 Y76.302 E.03731
G1 X114.625 Y76.128 E.04458
G1 X135.375 Y75.635 E.65079
G1 X136.786 Y75.809 E.04458
G1 X138.34 Y76.28 E.05091
G1 X139.611 Y76.92 E.04462
G1 X140.915 Y77.887 E.0509
G1 X141.896 Y78.917 E.0446
G1 X142.798 Y80.267 E.05091
G1 X143.37 Y81.557 E.04424
G1 X143.769 Y83.143 E.05128
G1 X143.874 Y84.478 E.04199
G1 X144.299 Y124.478 E1.25424
G1 X144.129 Y126.235 E.05535
G1 X143.613 Y128.009 E.05793
G1 X143.191 Y128.902 E.03097
G1 X142.462 Y130.045 E.04251
G1 X141.836 Y130.808 E.03094
G1 X140.884 Y131.702 E.04095
G1 X139.773 Y132.48 E.04253
G1 X138.902 Y132.945 E.03096
G1 X137.793 Y133.373 E.03727
G1 X136.672 Y133.646 E.03618
G1 X135.375 Y133.797 E.04094
G1 X114.944 Y134.298 E.64079
G1 X113.271 Y134.128 E.05273
G1 X111.497 Y133.612 E.05793
G1 X110.327 Y133.033 E.04093
G1 X109.368 Y132.392 E.03617
G1 X108.384 Y131.532 E.04098
G1 X107.538 Y130.538 E.04093
G1 X106.809 Y129.395 E.04251
G1 X106.272 Y128.204 E.04096
G1 X105.916 Y126.948 E.04093
G1 X105.738 Y125.809 E.03615
G1 X106.126 Y84.938 E1.28154
G1 X106.306 Y83.219 E.05419
G1 X106.776 Y81.662 E.05099
G1 X107.2 Y80.765 E.03111
G1 X107.806 Y79.806 E.03557
;WIPE_START
G1 F8640
G1 X107.838 Y79.756 E-.01762
G1 X108.462 Y78.996 E-.29193
G1 X109.326 Y78.172 E-.35445
G1 X110.12 Y77.584 E-.29332
G1 X111.155 Y76.997 E-.35324
G1 X111.745 Y76.753 E-.18944
;WIPE_END
G1 Z.8 F10800
G1 X110.77 Y81.435
G1 Z.2
G1 E1.5 F2700
;TYPE:Perimeter
;WIDTH:0.419999
G1 F600
G1 X111.158 Y81.02 E.01781
G1 X111.546 Y80.678 E.01622
G1 X112.008 Y80.347 E.01782
G1 X112.455 Y80.086 E.01623
G1 X112.972 Y79.852 E.01779
G1 X113.462 Y79.684 E.01624
G1 X114.015 Y79.555 E.0178
G1 X114.528 Y79.485 E.01623
G1 X115.096 Y79.466 E.01782
G1 X115.612 Y79.499 E.01621
G1 X116.173 Y79.591 E.01782
G1 X116.673 Y79.723 E.01621
G1 X117.205 Y79.923 E.01782
G1 X117.67 Y80.15 E.01622
G1 X118.152 Y80.45 E.0178
G1 X118.564 Y80.764 E.01624
G1 X118.979 Y81.152 E.01781
G1 X119.322 Y81.54 E.01624
G1 X119.652 Y82.001 E.01778
G1 X119.913 Y82.449 E.01626
G1 X120.147 Y82.966 E.01779
G1 X120.316 Y83.456 E.01625
G1 X120.445 Y84.009 E.0178
G1 X120.514 Y84.522 E.01623
G1 X120.533 Y85.089 E.01779
G1 X120.501 Y85.606 E.01624
G1 X120.408 Y86.167 E.01783
G1 X120.276 Y86.667 E.01621
G1 X120.076 Y87.199 E.01782
G1 X119.849 Y87.664 E.01622
G1 X119.549 Y88.146 E.0178
G1 X119.235 Y88.558 E.01624
G1 X118.847 Y88.973 E.01781
G1 X118.459 Y89.315 E.01622
G1 X117.998 Y89.646 E.01779
G1 X117.55 Y89.907 E.01626
G1 X117.033 Y90.141 E.01779
G1 X116.543 Y90.309 E.01624
G1 X115.99 Y90.439 E.01781
G1 X115.477 Y90.508 E.01623
G1 X114.91 Y90.527 E.01779
G1 X114.393 Y90.495 E.01624
G1 X113.833 Y90.402 E.0178
G1 X113.332 Y90.27 E.01624
G1 X112.801 Y90.07 E.01779
M73 P1 R45
G1 X112.335 Y89.843 E.01625
G1 X111.853 Y89.543 E.0178
M73 Q1 S46
G1 X111.441 Y89.229 E.01624
G1 X111.027 Y88.841 E.01779
G1 X110.684 Y88.453 E.01624
G1 X110.353 Y87.992 E.01779
G1 X110.092 Y87.544 E.01626
G1 X109.858 Y87.027 E.01779
G1 X109.69 Y86.537 E.01624
G1 X109.561 Y85.984 E.0178
G1 X109.491 Y85.471 E.01623
G1 X109.473 Y84.904 E.01779
G1 X109.505 Y84.387 E.01624
G1 X109.597 Y83.827 E.01779
G1 X109.729 Y83.326 E.01624
G1 X109.929 Y82.794 E.01782
G1 X110.156 Y82.329 E.01622
G1 X110.456 Y81.847 E.0178
G1 X110.734 Y81.483 E.01436
G1 X110.491 Y81.182 F10800
G1 F600
G1 X110.905 Y80.741 E.01897
G1 X111.322 Y80.375 E.0174
G1 X111.814 Y80.023 E.01897
G1 X112.294 Y79.745 E.01739
G1 X112.845 Y79.497 E.01895
G1 X113.37 Y79.318 E.01739
G1 X113.96 Y79.182 E.01898
G1 X114.51 Y79.109 E.0174
G1 X115.114 Y79.09 E.01895
G1 X115.668 Y79.126 E.01741
G1 X116.264 Y79.225 E.01894
G1 X116.8 Y79.368 E.01739
G1 X117.366 Y79.582 E.01897
G1 X117.864 Y79.827 E.0174
G1 X118.377 Y80.147 E.01896
G1 X118.817 Y80.485 E.0174
G1 X119.258 Y80.899 E.01897
G1 X119.624 Y81.315 E.01737
G1 X119.976 Y81.808 E.01899
G1 X120.254 Y82.288 E.01739
G1 X120.502 Y82.839 E.01895
G1 X120.681 Y83.364 E.01739
G1 X120.818 Y83.954 E.01899
G1 X120.891 Y84.504 E.0174
G1 X120.909 Y85.108 E.01895
G1 X120.874 Y85.662 E.0174
G1 X120.774 Y86.258 E.01895
G1 X120.631 Y86.794 E.01739
G1 X120.417 Y87.36 E.01897
G1 X120.172 Y87.858 E.0174
G1 X119.852 Y88.371 E.01896
G1 X119.515 Y88.811 E.01738
G1 X119.101 Y89.252 E.01897
G1 X118.684 Y89.618 E.0174
G1 X118.192 Y89.97 E.01897
G1 X117.711 Y90.248 E.01742
G1 X117.16 Y90.496 E.01895
G1 X116.635 Y90.675 E.01739
G1 X116.046 Y90.812 E.01896
G1 X115.496 Y90.885 E.0174
G1 X114.891 Y90.903 E.01898
G1 X114.337 Y90.868 E.0174
G1 X113.741 Y90.768 E.01895
G1 X113.205 Y90.625 E.01739
G1 X112.639 Y90.411 E.01897
G1 X112.141 Y90.166 E.0174
G1 X111.628 Y89.846 E.01896
G1 X111.188 Y89.509 E.01738
G1 X110.747 Y89.095 E.01897
G1 X110.381 Y88.678 E.0174
G1 X110.029 Y88.186 E.01897
G1 X109.751 Y87.705 E.01742
G1 X109.503 Y87.154 E.01895
G1 X109.324 Y86.629 E.01739
G1 X109.188 Y86.04 E.01895
G1 X109.115 Y85.49 E.0174
G1 X109.096 Y84.885 E.01898
G1 X109.132 Y84.331 E.01741
G1 X109.231 Y83.735 E.01894
G1 X109.374 Y83.199 E.01739
G1 X109.588 Y82.633 E.01897
G1 X109.833 Y82.135 E.0174
G1 X110.153 Y81.622 E.01896
G1 X110.454 Y81.229 E.01552
G1 X110.211 Y80.928 F10800
;TYPE:External perimeter
G1 F600
G1 X110.651 Y80.462 E.0201
G1 X111.097 Y80.072 E.01858
G1 X111.62 Y79.7 E.02012
M73 Q1 S45
G1 X112.133 Y79.405 E.01855
G1 X112.718 Y79.142 E.02011
G1 X113.279 Y78.952 E.01857
G1 X113.904 Y78.809 E.0201
G1 X114.491 Y78.732 E.01856
G1 X115.133 Y78.713 E.02014
G1 X115.723 Y78.753 E.01854
G1 X116.356 Y78.859 E.02012
G1 X116.927 Y79.013 E.01854
G1 X117.527 Y79.241 E.02013
G1 X118.058 Y79.504 E.01858
G1 X118.602 Y79.844 E.02011
G1 X119.071 Y80.205 E.01856
G1 X119.537 Y80.645 E.0201
G1 X119.927 Y81.091 E.01858
G1 X120.299 Y81.614 E.02012
G1 X120.595 Y82.127 E.01857
G1 X120.857 Y82.712 E.0201
G1 X121.047 Y83.273 E.01857
G1 X121.191 Y83.898 E.02011
G1 X121.267 Y84.485 E.01856
G1 X121.286 Y85.126 E.02011
G1 X121.247 Y85.717 E.01857
G1 X121.14 Y86.35 E.02013
G1 X120.986 Y86.921 E.01854
G1 X120.758 Y87.521 E.02013
G1 X120.496 Y88.052 E.01857
G1 X120.155 Y88.595 E.0201
G1 X119.794 Y89.065 E.01858
G1 X119.354 Y89.531 E.0201
G1 X118.908 Y89.921 E.01858
G1 X118.385 Y90.293 E.02012
G1 X117.873 Y90.589 E.01854
G1 X117.287 Y90.851 E.02013
G1 X116.726 Y91.041 E.01857
G1 X116.101 Y91.185 E.02011
G1 X115.514 Y91.261 E.01856
G1 X114.873 Y91.28 E.02011
G1 X114.282 Y91.241 E.01857
G1 X113.649 Y91.134 E.02013
G1 X113.078 Y90.98 E.01854
G1 X112.478 Y90.752 E.02013
G1 X111.947 Y90.49 E.01857
G1 X111.404 Y90.149 E.0201
G1 X110.935 Y89.788 E.01856
G1 X110.468 Y89.348 E.02012
G1 X110.078 Y88.902 E.01858
G1 X109.706 Y88.379 E.02012
G1 X109.411 Y87.866 E.01855
G1 X109.148 Y87.281 E.02011
G1 X108.958 Y86.72 E.01857
G1 X108.815 Y86.095 E.0201
G1 X108.738 Y85.508 E.01856
G1 X108.719 Y84.867 E.02011
G1 X108.759 Y84.276 E.01857
G1 X108.865 Y83.643 E.02012
G1 X109.019 Y83.072 E.01854
G1 X109.247 Y82.472 E.02013
G1 X109.51 Y81.941 E.01858
G1 X109.85 Y81.398 E.02009
G1 X110.175 Y80.976 E.0167
;WIPE_START
G1 F8640
G1 X110.211 Y80.928 E-.01781
G1 X110.651 Y80.462 E-.19027
G1 X111.097 Y80.072 E-.17589
G1 X111.62 Y79.7 E-.19054
G1 X112.133 Y79.405 E-.17568
G1 X112.718 Y79.142 E-.19042
G1 X113.279 Y78.952 E-.17584
G1 X113.904 Y78.809 E-.19034
G1 X114.491 Y78.732 E-.17576
G1 X114.55 Y78.73 E-.01745
;WIPE_END
G1 Z.8 F10800
G1 X113.343 Y82.799
G1 Z.2
G1 E1.5 F2700
;TYPE:Perimeter
G1 F600
G1 X113.424 Y82.73 E.00334
G1 X113.897 Y82.466 E.01698
G1 X114.412 Y82.299 E.01698
G1 X114.95 Y82.235 E.01699
G1 X115.489 Y82.278 E.01695
G1 X116.01 Y82.425 E.01697
G1 X116.493 Y82.671 E.017
G1 X116.918 Y83.006 E.01697
G1 X117.269 Y83.418 E.01697
G1 X117.533 Y83.891 E.01698
G1 X117.701 Y84.406 E.01698
G1 X117.764 Y84.943 E.01695
G1 X117.721 Y85.483 E.01698
G1 X117.574 Y86.004 E.01697
G1 X117.328 Y86.486 E.01697
G1 X116.993 Y86.912 E.01699
G1 X116.581 Y87.263 E.01697
G1 X116.108 Y87.527 E.01698
G1 X115.594 Y87.694 E.01695
G1 X115.056 Y87.758 E.01699
G1 X114.516 Y87.715 E.01698
G1 X113.995 Y87.568 E.01697
G1 X113.513 Y87.322 E.01697
G1 X113.088 Y86.987 E.01697
G1 X112.736 Y86.575 E.01699
G1 X112.472 Y86.102 E.01698
G1 X112.303 Y85.577 E.01729
G1 X112.241 Y85.05 E.01664
G1 X112.284 Y84.51 E.01698
G1 X112.431 Y83.989 E.01697
G1 X112.677 Y83.507 E.01697
G1 X113.012 Y83.082 E.01697
G1 X113.297 Y82.838 E.01176
;WIPE_START
G1 F8640
G1 X113.343 Y82.799 E-.0179
G1 X113.424 Y82.73 E-.03159
G1 X113.897 Y82.466 E-.16081
G1 X114.412 Y82.299 E-.16073
G1 X114.95 Y82.235 E-.16084
G1 X115.489 Y82.278 E-.16052
G1 X116.01 Y82.425 E-.16071
G1 X116.493 Y82.671 E-.16092
G1 X116.918 Y83.006 E-.16066
G1 X117.269 Y83.418 E-.16068
G1 X117.533 Y83.891 E-.16081
G1 X117.537 Y83.903 E-.00383
;WIPE_END
G1 Z.8 F10800
G1 X113.094 Y86.418
G1 Z.2
G1 E1.5 F2700
G1 F600
G1 X113.054 Y86.372 E.00191
G1 X112.823 Y85.966 E.01465
G1 X112.676 Y85.522 E.01466
G1 X112.618 Y85.058 E.01466
G1 X112.652 Y84.592 E.01465
G1 X112.776 Y84.141 E.01467
G1 X112.986 Y83.723 E.01467
G1 X113.273 Y83.354 E.01466
G1 X113.627 Y83.048 E.01467
G1 X114.033 Y82.817 E.01465
G1 X114.477 Y82.67 E.01466
G1 X114.941 Y82.612 E.01466
G1 X115.407 Y82.646 E.01465
G1 X115.858 Y82.77 E.01467
G1 X116.276 Y82.98 E.01467
G1 X116.645 Y83.267 E.01466
G1 X116.951 Y83.621 E.01467
G1 X117.182 Y84.027 E.01465
G1 X117.329 Y84.471 E.01466
G1 X117.387 Y84.935 E.01466
G1 X117.353 Y85.401 E.01465
G1 X117.229 Y85.852 E.01467
G1 X117.019 Y86.27 E.01467
G1 X116.732 Y86.639 E.01466
G1 X116.378 Y86.945 E.01467
G1 X115.972 Y87.176 E.01465
G1 X115.528 Y87.323 E.01466
G1 X115.064 Y87.381 E.01466
G1 X114.598 Y87.347 E.01465
G1 X114.147 Y87.223 E.01467
G1 X113.729 Y87.013 E.01467
G1 X113.36 Y86.726 E.01466
G1 X113.133 Y86.464 E.01087
G1 X113.378 Y86.179 F10800
;TYPE:External perimeter
G1 F600
G1 X113.178 Y85.839 E.01237
G1 X113.049 Y85.467 E.01235
G1 X112.995 Y85.077 E.01234
G1 X113.018 Y84.683 E.01237
G1 X113.117 Y84.302 E.01234
G1 X113.289 Y83.948 E.01234
G1 X113.526 Y83.634 E.01233
G1 X113.821 Y83.372 E.01237
G1 X114.16 Y83.172 E.01234
G1 X114.532 Y83.043 E.01235
G1 X114.922 Y82.989 E.01234
G1 X115.316 Y83.012 E.01237
G1 X115.697 Y83.111 E.01234
G1 X116.051 Y83.283 E.01234
G1 X116.366 Y83.52 E.01236
G1 X116.627 Y83.815 E.01235
G1 X116.827 Y84.154 E.01234
G1 X116.956 Y84.526 E.01235
G1 X117.01 Y84.916 E.01234
G1 X116.987 Y85.31 E.01237
G1 X116.888 Y85.691 E.01234
G1 X116.716 Y86.045 E.01234
G1 X116.479 Y86.36 E.01236
G1 X116.185 Y86.621 E.01233
G1 X115.845 Y86.821 E.01237
G1 X115.473 Y86.95 E.01235
G1 X115.083 Y87.004 E.01234
G1 X114.69 Y86.981 E.01234
G1 X114.308 Y86.882 E.01237
G1 X113.954 Y86.71 E.01234
G1 X113.64 Y86.473 E.01233
G1 X113.418 Y86.223 E.01048
;WIPE_START
G1 F8640
G1 X113.378 Y86.179 E-.01765
G1 X113.178 Y85.839 E-.11711
G1 X113.049 Y85.467 E-.11689
G1 X112.995 Y85.077 E-.11689
G1 X113.018 Y84.683 E-.11717
G1 X113.117 Y84.302 E-.11687
G1 X113.289 Y83.948 E-.11684
G1 X113.526 Y83.634 E-.11679
G1 X113.821 Y83.372 E-.11713
G1 X114.16 Y83.172 E-.11685
G1 X114.532 Y83.043 E-.11689
G1 X114.922 Y82.989 E-.11689
G1 X115.316 Y83.012 E-.11717
G1 X115.573 Y83.079 E-.07886
;WIPE_END
G1 Z.8 F10800
G1 X117.763 Y80.338
G1 Z.2
G1 E1.5 F2700
;TYPE:Solid infill
;WIDTH:0.431513
G1 F600
G1 X118.792 Y81.367 E.04702
G1 X119.062 Y81.665 E.01299
G1 X119.369 Y82.079 E.01665
G1 X119.634 Y82.521 E.01665
G1 X119.847 Y82.972 E.01612
G1 X117.027 Y80.152 E.12886
G1 X116.527 Y79.971 E.01718
G1 X116.22 Y79.894 E.01023
G1 X120.105 Y83.779 E.17753
G1 X120.153 Y83.972 E.00643
G1 X120.224 Y84.447 E.01552
G1 X115.552 Y79.775 E.21349
G1 X114.978 Y79.751 E.01856
G1 X120.253 Y85.026 E.24104
G1 X120.224 Y85.546 E.01683
G1 X114.453 Y79.776 E.26369
G1 X113.974 Y79.847 E.01565
G1 X120.152 Y86.025 E.28231
G1 X120.042 Y86.464 E.01462
G1 X117.981 Y84.402 E.0942
G1 X118.046 Y84.847 E.01453
G1 X118.038 Y85.01 E.00527
G1 X119.902 Y86.873 E.08515
G1 X119.736 Y87.257 E.01352
G1 X117.998 Y85.519 E.07942
G1 X117.888 Y85.959 E.01465
G1 X119.547 Y87.617 E.07579
G1 X119.337 Y87.957 E.01291
G1 X117.721 Y86.342 E.07382
G1 X117.617 Y86.563 E.00789
M73 P1 R44
G1 X117.522 Y86.691 E.00515
G1 X119.103 Y88.273 E.07227
G1 X118.847 Y88.566 E.01257
G1 X117.288 Y87.007 E.07124
G1 X117.006 Y87.274 E.01255
G1 X118.572 Y88.841 E.07158
G1 X118.279 Y89.097 E.01257
G1 X116.698 Y87.516 E.07224
G1 X116.354 Y87.722 E.01296
G1 X117.963 Y89.331 E.07352
G1 X117.623 Y89.541 E.01291
G1 X115.958 Y87.876 E.07608
G1 X115.743 Y87.953 E.00738
G1 X115.519 Y87.986 E.00732
G1 X117.263 Y89.73 E.07969
G1 X116.879 Y89.896 E.01352
G1 X115.017 Y88.034 E.08509
G1 X114.555 Y88.011 E.01495
G1 X114.408 Y87.974 E.0049
G1 X116.607 Y90.173 E.10048
;WIPE_START
G1 F8640
G1 X114.408 Y87.974 E-.92324
G1 X114.555 Y88.011 E-.045
G1 X115.017 Y88.034 E-.13733
G1 X115.957 Y88.973 E-.39443
;WIPE_END
G1 Z.8 F10800
G1 X115.83 Y82.252
G1 Z.2
G1 E1.5 F2700
G1 F600
G1 X113.535 Y79.957 E.10487
G1 X113.126 Y80.097 E.01397
G1 X114.988 Y81.959 E.08509
G1 X114.853 Y81.953 E.00437
G1 X114.486 Y82.007 E.01199
G1 X112.742 Y80.263 E.07969
G1 X112.382 Y80.452 E.01314
G1 X114.047 Y82.117 E.07608
G1 X113.651 Y82.271 E.01373
G1 X112.042 Y80.662 E.07352
G1 X111.726 Y80.896 E.01271
G1 X113.307 Y82.477 E.07224
G1 X113.187 Y82.549 E.00452
G1 X113 Y82.719 E.00817
G1 X111.433 Y81.153 E.07158
G1 X111.289 Y81.283 E.00627
G1 X111.159 Y81.427 E.00627
G1 X112.718 Y82.986 E.07124
G1 X112.484 Y83.302 E.01271
G1 X110.902 Y81.72 E.07229
G1 X110.668 Y82.036 E.01271
G1 X112.284 Y83.652 E.07384
G1 X112.117 Y84.035 E.0135
G1 X110.458 Y82.376 E.07581
G1 X110.269 Y82.736 E.01314
G1 X112.007 Y84.474 E.07942
G1 X111.988 Y84.549 E.0025
G1 X111.967 Y84.983 E.01404
G1 X110.103 Y83.12 E.08515
G1 X109.963 Y83.529 E.01397
M73 P2 R44
G1 X112.258 Y85.824 E.10487
;WIPE_START
G1 F8640
M73 Q2 S45
G1 X109.963 Y83.529 E-.96354
G1 X110.103 Y83.12 E-.12834
G1 X111.075 Y84.092 E-.40812
;WIPE_END
G1 Z.8 F10800
G1 X109.713 Y83.829
G1 Z.2
G1 E1.5 F2700
G1 F600
G1 X116.031 Y90.146 E.28868
G1 X115.552 Y90.218 E.01565
G1 X109.782 Y84.447 E.26369
G1 X109.753 Y84.967 E.01683
G1 X115.032 Y90.247 E.24125
G1 X114.453 Y90.218 E.01873
G1 X109.781 Y85.546 E.21349
G1 X109.852 Y86.021 E.01552
G1 X109.9 Y86.214 E.00643
G1 X113.785 Y90.099 E.17753
G1 X113.478 Y90.022 E.01023
G1 X112.978 Y89.841 E.01718
G1 X110.158 Y87.021 E.12886
G1 X110.371 Y87.472 E.01612
G1 X110.636 Y87.914 E.01665
G1 X110.943 Y88.328 E.01665
G1 X111.214 Y88.627 E.01304
