; generated by PrusaSlicer 2.7.1+linux-x64-GTK3 on 2025-12-12 at 06:36:09 UTC

; 

; external perimeters extrusion width = 0.45mm
; perimeters extrusion width = 0.45mm
; infill extrusion width = 0.45mm
; solid infill extrusion width = 0.45mm
; top infill extrusion width = 0.40mm
; first layer extrusion width = 0.42mm

; external perimeters extrusion width = 0.45mm
; perimeters extrusion width = 0.45mm
; infill extrusion width = 0.45mm
; solid infill extrusion width = 0.45mm
; top infill extrusion width = 0.40mm
; first layer extrusion width = 0.42mm

M73 P0 R39
M73 Q0 S39
M201 X1000 Y1000 Z1000 E5000 ; sets maximum accelerations, mm/sec^2
M203 X200 Y200 Z12 E120 ; sets maximum feedrates, mm / sec
M204 S1250 T1250 ; sets acceleration (S) and retract acceleration (R), mm/sec^2
M205 X8.00 Y8.00 Z0.40 E1.50 ; sets the jerk limits, mm/sec
M205 S0 T0 ; sets the minimum extruding and travel feed rate, mm/sec
;TYPE:Custom
M115 U3.4.0 ; tell printer latest fw version
M83  ; extruder relative mode
M104 S230 ; set extruder temp
M140 S95 ; set bed temp
M190 S95 ; wait for bed temp
M109 S230 ; wait for extruder temp
G28 W ; home all without mesh bed level
G80 ; mesh bed leveling
G1 Y-3.0 F1000.0 ; go outside print area
G92 E0.0
G1 X60.0 E9.0  F1000.0 ; intro line
G1 X100.0 E12.5  F1000.0 ; intro line
G92 E0.0
M221 S95
G21 ; set units to millimeters
G90 ; use absolute coordinates
M83 ; use relative distances for extrusion
M900 K45; Filament gcode
M107
;LAYER_CHANGE
;Z:0.2
;HEIGHT:0.2
;BEFORE_LAYER_CHANGE
G92 E0.0
;0.2


G1 E-1.5 F2700
M73 P0 R38
G1 Z.2 F10800
;AFTER_LAYER_CHANGE
;0.2
G1 X115.773 Y85.021
G1 Z.2
G1 E1.5 F2700
M204 S1000
;TYPE:Skirt/Brim
;WIDTH:0.42
G1 F600
G1 X116.352 Y84.232 E.03068
G1 X117.602 Y82.907 E.05711
G1 X119.032 Y81.78 E.05709
G1 X120.718 Y80.825 E.06075
G1 X122.42 Y80.178 E.05709
G1 X124.198 Y79.787 E.05708
G1 X126.031 Y79.662 E.05761
G1 X127.715 Y79.787 E.05295
G1 X128.907 Y80.019 E.03808
G1 X130.071 Y80.366 E.03808
G1 X131.195 Y80.825 E.03807
G1 X132.269 Y81.393 E.03809
G1 X133.282 Y82.063 E.03808
G1 X134.225 Y82.829 E.03809
G1 X135.088 Y83.684 E.03809
G1 X135.862 Y84.619 E.03806
G1 X136.542 Y85.626 E.0381
G1 X137.12 Y86.694 E.03808
G1 X137.59 Y87.814 E.03808
G1 X137.948 Y88.974 E.03806
G1 X138.19 Y90.165 E.03811
G1 X138.315 Y91.373 E.03808
G1 X138.315 Y92.704 E.04173
G1 X136.366 Y119.117 E.83041
G1 X136.063 Y120.912 E.05708
G1 X135.5 Y122.644 E.0571
G1 X134.689 Y124.274 E.05708
G1 X133.574 Y125.858 E.06074
G1 X132.312 Y127.171 E.0571
G1 X130.833 Y128.309 E.05851
G1 X129.826 Y128.904 E.03667
G1 X128.834 Y129.374 E.03442
G1 X127.107 Y129.953 E.05711
G1 X125.315 Y130.273 E.05708
G1 X123.378 Y130.32 E.06075
G1 X122.17 Y130.196 E.03808
G1 X120.98 Y129.953 E.03808
G1 X119.819 Y129.595 E.03809
G1 X118.699 Y129.125 E.03808
G1 X117.631 Y128.547 E.03808
G1 X116.624 Y127.868 E.03808
G1 X115.689 Y127.093 E.03808
G1 X114.834 Y126.23 E.03809
G1 X114.068 Y125.287 E.03809
G1 X113.398 Y124.274 E.03808
G1 X112.831 Y123.201 E.03805
G1 X112.371 Y122.076 E.03811
G1 X112.024 Y120.912 E.03808
G1 X111.793 Y119.72 E.03807
G1 X111.679 Y118.511 E.03808
G1 X111.685 Y117.296 E.0381
G1 X113.634 Y90.883 E.83041
G1 X113.937 Y89.088 E.05708
G1 X114.323 Y87.814 E.04174
G1 X115.069 Y86.153 E.05709
G1 X115.633 Y85.211 E.03442
G1 X115.738 Y85.069 E.00554
;WIPE_START
G1 F8640
G1 X115.773 Y85.021 E-.01764
G1 X116.352 Y84.232 E-.29054
G1 X117.602 Y82.907 E-.54078
G1 X119.032 Y81.78 E-.54053
G1 X119.356 Y81.597 E-.11051
;WIPE_END
G1 Z.8 F10800
G1 X118.444 Y87.019
G1 Z.2
G1 E1.5 F2700
;TYPE:Perimeter
;WIDTH:0.419999
G1 F600
G1 X118.973 Y86.307 E.02781
G1 X119.568 Y85.65 E.02779
G1 X120.225 Y85.054 E.02781
G1 X120.937 Y84.526 E.02779
G1 X121.698 Y84.07 E.02782
G1 X122.499 Y83.691 E.02778
G1 X123.334 Y83.393 E.0278
G1 X124.194 Y83.177 E.0278
G1 X125.071 Y83.047 E.0278
G1 X125.972 Y83.004 E.02828
G1 X126.842 Y83.047 E.02731
G1 X127.719 Y83.177 E.0278
G1 X128.579 Y83.393 E.0278
G1 X129.414 Y83.691 E.0278
G1 X130.215 Y84.07 E.02778
G1 X130.976 Y84.526 E.02782
G1 X131.688 Y85.054 E.02779
G1 X132.345 Y85.65 E.02781
G1 X132.94 Y86.307 E.02779
G1 X133.468 Y87.019 E.02779
G1 X133.924 Y87.779 E.02779
G1 X134.303 Y88.581 E.02781
G1 X134.602 Y89.416 E.02781
G1 X134.818 Y90.276 E.0278
G1 X134.925 Y91 E.02295
G1 X134.969 Y91.595 E.01871
G1 X134.984 Y92.192 E.01872
G1 X134.948 Y92.924 E.02298
G1 X134.818 Y93.801 E.0278
G1 X134.602 Y94.661 E.0278
G1 X134.303 Y95.496 E.02781
G1 X133.924 Y96.297 E.02778
G1 X133.468 Y97.058 E.02782
G1 X132.94 Y97.77 E.02779
G1 X132.345 Y98.427 E.02779
G1 X131.688 Y99.022 E.02779
M73 P1 R38
G1 X130.976 Y99.55 E.02779
M73 Q1 S39
G1 X130.215 Y100.006 E.02782
G1 X129.414 Y100.385 E.02778
G1 X128.579 Y100.684 E.02781
G1 X127.719 Y100.899 E.02779
G1 X126.842 Y101.029 E.0278
G1 X125.956 Y101.073 E.02781
G1 X125.071 Y101.029 E.02778
G1 X124.194 Y100.899 E.0278
G1 X123.334 Y100.684 E.02779
G1 X122.499 Y100.385 E.02781
G1 X121.698 Y100.006 E.02778
G1 X120.937 Y99.55 E.02782
G1 X120.225 Y99.022 E.02779
G1 X119.568 Y98.427 E.02779
G1 X118.973 Y97.77 E.02779
G1 X118.444 Y97.058 E.02781
G1 X117.989 Y96.297 E.0278
G1 X117.609 Y95.496 E.0278
G1 X117.311 Y94.661 E.0278
G1 X117.095 Y93.801 E.0278
G1 X116.965 Y92.924 E.0278
G1 X116.922 Y92.038 E.02781
G1 X116.965 Y91.153 E.02778
G1 X117.095 Y90.276 E.0278
G1 X117.311 Y89.416 E.0278
G1 X117.609 Y88.581 E.0278
G1 X117.989 Y87.779 E.02783
G1 X118.414 Y87.07 E.02592
G1 X118.13 Y86.809 F10800
G1 F600
G1 X118.681 Y86.067 E.02898
G1 X119.301 Y85.383 E.02895
G1 X119.985 Y84.763 E.02895
G1 X120.727 Y84.212 E.02898
G1 X121.52 Y83.737 E.02898
G1 X122.355 Y83.343 E.02895
G1 X123.224 Y83.031 E.02895
G1 X124.12 Y82.807 E.02896
G1 X125.034 Y82.671 E.02897
G1 X125.972 Y82.626 E.02944
G1 X126.879 Y82.671 E.02847
G1 X127.793 Y82.807 E.02897
G1 X128.689 Y83.031 E.02896
G1 X129.558 Y83.343 E.02895
G1 X130.393 Y83.737 E.02895
G1 X131.186 Y84.212 E.02898
G1 X131.927 Y84.763 E.02895
G1 X132.612 Y85.383 E.02897
G1 X133.232 Y86.067 E.02895
G1 X133.782 Y86.809 E.02896
G1 X134.257 Y87.601 E.02896
G1 X134.652 Y88.436 E.02896
G1 X134.963 Y89.306 E.02897
G1 X135.188 Y90.202 E.02897
G1 X135.298 Y90.945 E.02355
G1 X135.346 Y91.577 E.01987
G1 X135.36 Y92.211 E.01988
G1 X135.323 Y92.961 E.02354
G1 X135.188 Y93.875 E.02897
G1 X134.963 Y94.77 E.02894
G1 X134.652 Y95.64 E.02897
G1 X134.257 Y96.475 E.02896
G1 X133.782 Y97.267 E.02896
G1 X133.232 Y98.009 E.02896
G1 X132.612 Y98.694 E.02897
G1 X131.927 Y99.314 E.02897
G1 X131.186 Y99.864 E.02893
G1 X130.393 Y100.339 E.02898
G1 X129.558 Y100.734 E.02896
G1 X128.689 Y101.045 E.02894
G1 X127.793 Y101.27 E.02897
G1 X126.879 Y101.405 E.02897
G1 X125.956 Y101.45 E.02897
G1 X125.034 Y101.405 E.02894
G1 X124.12 Y101.27 E.02897
G1 X123.224 Y101.045 E.02897
G1 X122.355 Y100.734 E.02894
G1 X121.52 Y100.339 E.02896
G1 X120.727 Y99.864 E.02898
G1 X119.985 Y99.314 E.02896
G1 X119.301 Y98.694 E.02895
G1 X118.681 Y98.009 E.02897
G1 X118.13 Y97.267 E.02898
G1 X117.656 Y96.475 E.02894
G1 X117.261 Y95.64 E.02896
G1 X116.949 Y94.77 E.02898
G1 X116.725 Y93.875 E.02893
G1 X116.59 Y92.961 E.02897
G1 X116.544 Y92.038 E.02898
G1 X116.59 Y91.116 E.02894
G1 X116.725 Y90.202 E.02897
G1 X116.949 Y89.306 E.02896
G1 X117.261 Y88.436 E.02898
G1 X117.656 Y87.601 E.02896
G1 X118.1 Y86.861 E.02706
G1 X117.817 Y86.599 F10800
;TYPE:External perimeter
G1 F600
G1 X118.389 Y85.828 E.0301
G1 X119.034 Y85.116 E.03012
G1 X119.746 Y84.471 E.03012
G1 X120.518 Y83.898 E.03014
G1 X121.342 Y83.404 E.03012
G1 X122.21 Y82.994 E.0301
G1 X123.115 Y82.67 E.03014
G1 X124.047 Y82.437 E.03012
G1 X124.997 Y82.296 E.03011
G1 X125.972 Y82.249 E.03061
G1 X126.916 Y82.296 E.02964
G1 X127.866 Y82.437 E.03011
G1 X128.798 Y82.67 E.03012
G1 X129.703 Y82.994 E.03014
G1 X130.571 Y83.404 E.0301
G1 X131.395 Y83.898 E.03012
G1 X132.167 Y84.471 E.03014
G1 X132.879 Y85.116 E.03012
G1 X133.524 Y85.828 E.03012
G1 X134.096 Y86.599 E.0301
G1 X134.59 Y87.423 E.03012
G1 X135.001 Y88.292 E.03014
G1 X135.325 Y89.196 E.03011
G1 X135.558 Y90.128 E.03012
G1 X135.671 Y90.89 E.02415
G1 X135.723 Y91.558 E.02101
G1 X135.737 Y92.229 E.02104
G1 X135.699 Y92.998 E.02414
G1 X135.558 Y93.948 E.03011
G1 X135.325 Y94.88 E.03012
G1 X135.001 Y95.785 E.03014
G1 X134.59 Y96.653 E.03011
G1 X134.096 Y97.477 E.03012
G1 X133.524 Y98.249 E.03013
G1 X132.879 Y98.961 E.03012
G1 X132.167 Y99.606 E.03012
G1 X131.395 Y100.178 E.03013
G1 X130.571 Y100.672 E.03012
G1 X129.703 Y101.083 E.03011
G1 X128.798 Y101.406 E.03013
G1 X127.866 Y101.64 E.03013
G1 X126.916 Y101.781 E.03011
G1 X125.956 Y101.828 E.03014
G1 X124.997 Y101.781 E.0301
G1 X124.047 Y101.64 E.03011
G1 X123.115 Y101.406 E.03013
G1 X122.21 Y101.083 E.03013
G1 X121.342 Y100.672 E.03011
G1 X120.518 Y100.178 E.03012
G1 X119.746 Y99.606 E.03013
G1 X119.034 Y98.961 E.03012
G1 X118.389 Y98.249 E.03012
G1 X117.817 Y97.477 E.03013
G1 X117.323 Y96.653 E.03012
G1 X116.912 Y95.785 E.03011
G1 X116.588 Y94.88 E.03014
G1 X116.355 Y93.948 E.03012
G1 X116.214 Y92.998 E.03011
G1 X116.167 Y92.038 E.03014
G1 X116.214 Y91.079 E.0301
G1 X116.355 Y90.128 E.03014
G1 X116.588 Y89.196 E.03012
G1 X116.912 Y88.292 E.03011
G1 X117.323 Y87.423 E.03014
G1 X117.786 Y86.651 E.02822
;WIPE_START
G1 F8640
G1 X117.817 Y86.599 E-.01797
G1 X118.389 Y85.828 E-.285
G1 X119.034 Y85.116 E-.28521
G1 X119.746 Y84.471 E-.28521
G1 X120.518 Y83.898 E-.28542
G1 X121.342 Y83.404 E-.28522
G1 X121.512 Y83.323 E-.05597
;WIPE_END
G1 Z.8 F10800
G1 X123.896 Y90.209
G1 Z.2
G1 E1.5 F2700
;TYPE:Perimeter
G1 F600
G1 X123.955 Y90.134 E.00299
G1 X124.365 Y89.78 E.01698
G1 X124.836 Y89.513 E.01698
G1 X125.35 Y89.343 E.01697
G1 X125.891 Y89.276 E.01709
G1 X126.428 Y89.316 E.01688
G1 X126.95 Y89.46 E.01698
G1 X127.434 Y89.704 E.01699
G1 X127.861 Y90.037 E.01698
G1 X128.215 Y90.447 E.01698
G1 X128.482 Y90.918 E.01698
G1 X128.652 Y91.432 E.01697
G1 X128.718 Y91.97 E.017
G1 X128.679 Y92.51 E.01698
G1 X128.534 Y93.032 E.01699
G1 X128.291 Y93.516 E.01698
G1 X127.958 Y93.943 E.01698
G1 X127.548 Y94.296 E.01696
G1 X127.077 Y94.564 E.01699
G1 X126.563 Y94.734 E.01697
G1 X126.025 Y94.8 E.017
G1 X125.485 Y94.76 E.01698
G1 X124.963 Y94.616 E.01698
G1 X124.479 Y94.373 E.01698
G1 X124.052 Y94.04 E.01698
G1 X123.698 Y93.63 E.01698
M73 Q1 S38
G1 X123.431 Y93.159 E.01698
G1 X123.261 Y92.644 E.017
G1 X123.195 Y92.107 E.01696
G1 X123.24 Y91.542 E.01777
G1 X123.379 Y91.045 E.01618
G1 X123.622 Y90.561 E.01698
G1 X123.86 Y90.256 E.01213
G1 X124.19 Y90.444 F10800
G1 F600
G1 X124.227 Y90.396 E.0019
G1 X124.581 Y90.09 E.01467
G1 X124.987 Y89.859 E.01465
G1 X125.431 Y89.712 E.01466
G1 X125.895 Y89.654 E.01466
G1 X126.361 Y89.688 E.01465
G1 X126.812 Y89.812 E.01467
G1 X127.23 Y90.022 E.01467
G1 X127.599 Y90.309 E.01466
G1 X127.905 Y90.662 E.01465
G1 X128.136 Y91.069 E.01467
G1 X128.283 Y91.513 E.01466
G1 X128.341 Y91.977 E.01466
G1 X128.307 Y92.443 E.01465
G1 X128.183 Y92.894 E.01467
G1 X127.973 Y93.312 E.01467
G1 X127.686 Y93.681 E.01466
G1 X127.332 Y93.986 E.01465
G1 X126.926 Y94.217 E.01465
G1 X126.482 Y94.365 E.01467
G1 X126.018 Y94.423 E.01466
G1 X125.552 Y94.389 E.01465
G1 X125.101 Y94.265 E.01467
G1 X124.683 Y94.055 E.01467
G1 X124.314 Y93.768 E.01466
G1 X124.008 Y93.414 E.01467
G1 X123.777 Y93.008 E.01465
G1 X123.63 Y92.564 E.01466
G1 X123.572 Y92.1 E.01466
G1 X123.606 Y91.634 E.01465
G1 X123.73 Y91.183 E.01467
G1 X123.94 Y90.765 E.01467
G1 X124.153 Y90.491 E.01088
G1 X124.48 Y90.675 F10800
;TYPE:External perimeter
G1 F600
G1 X124.774 Y90.413 E.01235
G1 X125.114 Y90.214 E.01235
G1 X125.486 Y90.085 E.01235
G1 X125.876 Y90.031 E.01234
G1 X126.27 Y90.054 E.01237
G1 X126.651 Y90.153 E.01234
G1 X127.005 Y90.324 E.01233
G1 X127.319 Y90.562 E.01235
G1 X127.581 Y90.856 E.01235
G1 X127.781 Y91.196 E.01237
G1 X127.91 Y91.568 E.01235
G1 X127.964 Y91.958 E.01234
G1 X127.941 Y92.351 E.01234
G1 X127.842 Y92.733 E.01237
G1 X127.67 Y93.087 E.01234
G1 X127.433 Y93.401 E.01233
G1 X127.138 Y93.663 E.01237
G1 X126.799 Y93.862 E.01233
G1 X126.427 Y93.992 E.01236
G1 X126.037 Y94.046 E.01234
G1 X125.643 Y94.023 E.01237
G1 X125.262 Y93.924 E.01234
G1 X124.908 Y93.752 E.01234
G1 X124.593 Y93.515 E.01236
G1 X124.332 Y93.22 E.01235
G1 X124.132 Y92.881 E.01234
G1 X124.003 Y92.509 E.01235
G1 X123.949 Y92.118 E.01238
G1 X123.972 Y91.725 E.01234
G1 X124.071 Y91.344 E.01234
G1 X124.243 Y90.989 E.01237
G1 X124.444 Y90.723 E.01045
;WIPE_START
G1 F8640
G1 X124.48 Y90.675 E-.01781
G1 X124.774 Y90.413 E-.11691
G1 X125.114 Y90.214 E-.11696
G1 X125.486 Y90.085 E-.11689
G1 X125.876 Y90.031 E-.11689
G1 X126.27 Y90.054 E-.11717
G1 X126.651 Y90.153 E-.11687
G1 X127.005 Y90.324 E-.11671
G1 X127.319 Y90.562 E-.11697
G1 X127.581 Y90.856 E-.11691
G1 X127.781 Y91.196 E-.11711
G1 X127.91 Y91.568 E-.11689
G1 X127.964 Y91.958 E-.11689
G1 X127.949 Y92.224 E-.07902
;WIPE_END
G1 Z.8 F10800
G1 X133.374 Y87.082
G1 Z.2
G1 E1.5 F2700
;TYPE:Solid infill
;WIDTH:0.423358
G1 F600
G1 X132.122 Y85.829 E.05603
G1 X131.508 Y85.273 E.0262
G1 X130.819 Y84.762 E.02714
G1 X130.068 Y84.314 E.02766
G1 X133.681 Y87.926 E.16161
G1 X134.042 Y88.689 E.0267
G1 X134.118 Y88.901 E.00712
G1 X129.094 Y83.877 E.22476
G1 X128.497 Y83.664 E.02005
G1 X128.29 Y83.612 E.00675
G1 X134.383 Y89.704 E.27256
G1 X134.552 Y90.411 E.023
G1 X127.583 Y83.443 E.31175
G1 X126.952 Y83.349 E.02018
M73 P2 R38
M73 Q2 S38
G1 X134.645 Y91.043 E.34418
G1 X134.688 Y91.623 E.0184
G1 X126.371 Y83.307 E.37205
G1 X125.83 Y83.304 E.01711
G1 X134.701 Y92.175 E.39686
G1 X134.676 Y92.688 E.01625
G1 X125.31 Y83.322 E.419
G1 X125.098 Y83.329 E.00671
G1 X124.821 Y83.37 E.00886
G1 X134.625 Y93.174 E.4386
G1 X134.555 Y93.643 E.015
G1 X124.352 Y83.44 E.45645
G1 X123.913 Y83.539 E.01424
G1 X134.456 Y94.081 E.47164
G1 X134.348 Y94.512 E.01406
G1 X123.483 Y83.647 E.48606
G1 X123.082 Y83.783 E.01339
G1 X134.211 Y94.913 E.4979
G1 X134.07 Y95.309 E.0133
G1 X122.685 Y83.925 E.5093
G1 X122.314 Y84.092 E.01287
G1 X133.903 Y95.681 E.51845
G1 X133.73 Y96.046 E.01278
G1 X128.874 Y91.19 E.21724
G1 X128.913 Y91.298 E.00363
G1 X128.994 Y91.848 E.01759
G1 X133.538 Y96.392 E.20328
G1 X133.336 Y96.728 E.0124
M73 P2 R37
G1 X128.977 Y92.369 E.19501
G1 X128.971 Y92.485 E.00367
G1 X128.888 Y92.818 E.01086
G1 X133.121 Y97.051 E.18937
G1 X132.892 Y97.36 E.01217
G1 X128.752 Y93.22 E.18521
G1 X128.58 Y93.585 E.01276
G1 X132.656 Y97.662 E.18237
G1 X132.4 Y97.944 E.01205
G1 X128.354 Y93.897 E.18103
G1 X128.214 Y94.085 E.00741
G1 X128.104 Y94.185 E.0047
G1 X132.145 Y98.227 E.1808
G1 X131.862 Y98.482 E.01205
G1 X127.821 Y94.441 E.18078
G1 X127.494 Y94.652 E.01231
G1 X131.58 Y98.738 E.18279
G1 X131.278 Y98.974 E.01212
G1 X127.14 Y94.836 E.18512
G1 X126.744 Y94.978 E.01331
M73 P3 R37
G1 X130.969 Y99.203 E.18901
G1 X130.646 Y99.418 E.01227
M73 Q3 S38
G1 X126.284 Y95.056 E.19514
G1 X126.106 Y95.082 E.00569
G1 X125.755 Y95.065 E.01112
G1 X130.31 Y99.62 E.20378
G1 X129.964 Y99.812 E.01252
G1 X124.82 Y94.668 E.23013
;WIPE_START
G1 F8640
G1 X128.393 Y98.241 E-1.5
;WIPE_END
G1 Z.8 F10800
G1 X127.093 Y89.408
G1 Z.2
G1 E1.5 F2700
G1 F600
G1 X121.949 Y84.264 E.23013
G1 X121.603 Y84.457 E.01253
G1 X126.158 Y89.012 E.20378
G1 X125.808 Y88.994 E.01109
G1 X125.629 Y89.021 E.00573
G1 X121.267 Y84.658 E.19516
G1 X120.944 Y84.873 E.01227
G1 X125.169 Y89.099 E.18903
G1 X124.773 Y89.241 E.01331
G1 X120.635 Y85.103 E.18512
G1 X120.333 Y85.338 E.0121
G1 X124.418 Y89.424 E.18277
G1 X124.091 Y89.635 E.01231
G1 X120.05 Y85.594 E.18078
G1 X119.768 Y85.85 E.01205
G1 X123.809 Y89.891 E.18078
G1 X123.698 Y89.992 E.00475
G1 X123.559 Y90.179 E.00737
G1 X119.512 Y86.132 E.18105
G1 X119.257 Y86.414 E.01203
G1 X123.333 Y90.491 E.18237
G1 X123.16 Y90.856 E.01278
G1 X119.021 Y86.717 E.18516
G1 X118.792 Y87.026 E.01217
G1 X123.025 Y91.259 E.18937
G1 X122.942 Y91.591 E.01083
G1 X122.936 Y91.708 E.00371
G1 X118.577 Y87.349 E.19501
G1 X118.375 Y87.685 E.0124
G1 X122.919 Y92.229 E.20328
G1 X123 Y92.779 E.01759
G1 X123.039 Y92.887 E.00363
G1 X118.183 Y88.031 E.21724
G1 X118.01 Y88.396 E.01278
G1 X129.599 Y99.985 E.51845
G1 X129.227 Y100.152 E.0129
G1 X117.843 Y88.767 E.5093
G1 X117.701 Y89.163 E.01331
G1 X128.831 Y100.293 E.49792
G1 X128.43 Y100.43 E.0134
