; generated by PrusaSlicer 2.7.1+linux-x64-GTK3 on 2025-12-13 at 04:45:50 UTC

; 

; external perimeters extrusion width = 0.45mm
; perimeters extrusion width = 0.45mm
; infill extrusion width = 0.45mm
; solid infill extrusion width = 0.45mm
; top infill extrusion width = 0.40mm
; first layer extrusion width = 0.42mm

; external perimeters extrusion width = 0.45mm
; perimeters extrusion width = 0.45mm
; infill extrusion width = 0.45mm
; solid infill extrusion width = 0.45mm
; top infill extrusion width = 0.40mm
; first layer extrusion width = 0.42mm

M73 P0 R38
M73 Q0 S38
M201 X1000 Y1000 Z1000 E5000 ; sets maximum accelerations, mm/sec^2
M203 X200 Y200 Z12 E120 ; sets maximum feedrates, mm / sec
M204 S1250 T1250 ; sets acceleration (S) and retract acceleration (R), mm/sec^2
M205 X8.00 Y8.00 Z0.40 E1.50 ; sets the jerk limits, mm/sec
M205 S0 T0 ; sets the minimum extruding and travel feed rate, mm/sec
;TYPE:Custom
M115 U3.4.0 ; tell printer latest fw version
M83  ; extruder relative mode
M104 S230 ; set extruder temp
M140 S95 ; set bed temp
M190 S95 ; wait for bed temp
M109 S230 ; wait for extruder temp
G28 W ; home all without mesh bed level
G80 ; mesh bed leveling
G1 Y-3.0 F1000.0 ; go outside print area
G92 E0.0
G1 X60.0 E9.0  F1000.0 ; intro line
G1 X100.0 E12.5  F1000.0 ; intro line
G92 E0.0
M221 S95
G21 ; set units to millimeters
G90 ; use absolute coordinates
M83 ; use relative distances for extrusion
M900 K45; Filament gcode
M107
;LAYER_CHANGE
;Z:0.2
;HEIGHT:0.2
;BEFORE_LAYER_CHANGE
G92 E0.0
;0.2


G1 E-1.5 F2700
G1 Z.2 F10800
;AFTER_LAYER_CHANGE
;0.2
G1 X115.773 Y85.021
G1 Z.2
G1 E1.5 F2700
M204 S1000
;TYPE:Skirt/Brim
;WIDTH:0.42
G1 F600
G1 X116.352 Y84.232 E.03068
G1 X117.602 Y82.907 E.05711
G1 X119.032 Y81.78 E.05709
G1 X120.718 Y80.825 E.06075
G1 X122.42 Y80.178 E.05709
G1 X124.198 Y79.787 E.05708
G1 X126.031 Y79.662 E.05761
G1 X127.715 Y79.787 E.05295
G1 X128.907 Y80.019 E.03808
G1 X130.071 Y80.366 E.03808
G1 X131.195 Y80.825 E.03807
G1 X132.269 Y81.393 E.03809
G1 X133.282 Y82.063 E.03808
G1 X134.225 Y82.829 E.03809
G1 X135.088 Y83.684 E.03809
G1 X135.862 Y84.619 E.03806
G1 X136.542 Y85.626 E.0381
G1 X137.12 Y86.694 E.03808
G1 X137.59 Y87.814 E.03808
G1 X137.948 Y88.974 E.03806
G1 X138.19 Y90.165 E.03811
G1 X138.315 Y91.373 E.03808
G1 X138.315 Y92.704 E.04173
G1 X136.366 Y119.117 E.83041
G1 X136.063 Y120.912 E.05708
M73 P0 R37
G1 X135.5 Y122.644 E.0571
G1 X134.689 Y124.274 E.05708
G1 X133.574 Y125.858 E.06074
G1 X132.312 Y127.171 E.0571
G1 X130.833 Y128.309 E.05851
G1 X129.826 Y128.904 E.03667
G1 X128.834 Y129.374 E.03442
G1 X127.107 Y129.953 E.05711
G1 X125.315 Y130.273 E.05708
G1 X123.378 Y130.32 E.06075
G1 X122.17 Y130.196 E.03808
G1 X120.98 Y129.953 E.03808
G1 X119.819 Y129.595 E.03809
G1 X118.699 Y129.125 E.03808
G1 X117.631 Y128.547 E.03808
G1 X116.624 Y127.868 E.03808
G1 X115.689 Y127.093 E.03808
G1 X114.834 Y126.23 E.03809
G1 X114.068 Y125.287 E.03809
G1 X113.398 Y124.274 E.03808
G1 X112.831 Y123.201 E.03805
G1 X112.371 Y122.076 E.03811
G1 X112.024 Y120.912 E.03808
G1 X111.793 Y119.72 E.03807
G1 X111.679 Y118.511 E.03808
G1 X111.685 Y117.296 E.0381
G1 X113.634 Y90.883 E.83041
G1 X113.937 Y89.088 E.05708
G1 X114.323 Y87.814 E.04174
G1 X115.069 Y86.153 E.05709
G1 X115.633 Y85.211 E.03442
G1 X115.738 Y85.069 E.00554
;WIPE_START
G1 F8640
G1 X115.773 Y85.021 E-.01764
G1 X116.352 Y84.232 E-.29054
G1 X117.602 Y82.907 E-.54078
G1 X119.032 Y81.78 E-.54053
G1 X119.356 Y81.597 E-.11051
;WIPE_END
G1 Z.8 F10800
G1 X118.444 Y87.019
G1 Z.2
G1 E1.5 F2700
;TYPE:Perimeter
;WIDTH:0.419999
G1 F600
G1 X118.973 Y86.307 E.02781
G1 X119.568 Y85.65 E.02779
G1 X120.225 Y85.054 E.02781
G1 X120.937 Y84.526 E.02779
G1 X121.698 Y84.07 E.02782
G1 X122.499 Y83.691 E.02778
G1 X123.334 Y83.393 E.0278
G1 X124.194 Y83.177 E.0278
G1 X125.071 Y83.047 E.0278
G1 X125.972 Y83.004 E.02828
G1 X126.842 Y83.047 E.02731
G1 X127.719 Y83.177 E.0278
G1 X128.579 Y83.393 E.0278
G1 X129.414 Y83.691 E.0278
G1 X130.215 Y84.07 E.02778
G1 X130.976 Y84.526 E.02782
G1 X131.688 Y85.054 E.02779
G1 X132.345 Y85.65 E.02781
G1 X132.94 Y86.307 E.02779
G1 X133.468 Y87.019 E.02779
G1 X133.924 Y87.779 E.02779
G1 X134.303 Y88.581 E.02781
G1 X134.602 Y89.416 E.02781
G1 X134.818 Y90.276 E.0278
G1 X134.924 Y90.991 E.02266
G1 X134.969 Y91.595 E.01899
G1 X134.983 Y92.202 E.01904
G1 X134.948 Y92.924 E.02266
G1 X134.818 Y93.801 E.0278
G1 X134.602 Y94.661 E.0278
M73 P1 R37
G1 X134.303 Y95.496 E.02781
M73 Q1 S38
G1 X133.924 Y96.297 E.02778
G1 X133.468 Y97.058 E.02782
G1 X132.94 Y97.77 E.02779
G1 X132.345 Y98.427 E.02779
G1 X131.688 Y99.022 E.02779
G1 X130.976 Y99.55 E.02779
G1 X130.215 Y100.006 E.02782
G1 X129.414 Y100.385 E.02778
G1 X128.579 Y100.684 E.02781
G1 X127.719 Y100.899 E.02779
G1 X126.842 Y101.029 E.0278
G1 X125.956 Y101.073 E.02781
G1 X125.071 Y101.029 E.02778
G1 X124.194 Y100.899 E.0278
G1 X123.334 Y100.684 E.02779
G1 X122.499 Y100.385 E.02781
G1 X121.698 Y100.006 E.02778
G1 X120.937 Y99.55 E.02782
G1 X120.225 Y99.022 E.02779
G1 X119.568 Y98.427 E.02779
G1 X118.973 Y97.77 E.02779
G1 X118.444 Y97.058 E.02781
G1 X117.989 Y96.297 E.0278
G1 X117.609 Y95.496 E.0278
G1 X117.311 Y94.661 E.0278
G1 X117.095 Y93.801 E.0278
G1 X116.965 Y92.924 E.0278
G1 X116.922 Y92.038 E.02781
G1 X116.965 Y91.153 E.02778
G1 X117.095 Y90.276 E.0278
G1 X117.311 Y89.416 E.0278
G1 X117.609 Y88.581 E.0278
G1 X117.989 Y87.779 E.02783
G1 X118.414 Y87.07 E.02592
G1 X118.13 Y86.809 F10800
G1 F600
G1 X118.681 Y86.067 E.02898
G1 X119.301 Y85.383 E.02895
G1 X119.985 Y84.763 E.02895
G1 X120.727 Y84.212 E.02898
G1 X121.52 Y83.737 E.02898
G1 X122.355 Y83.343 E.02895
G1 X123.224 Y83.031 E.02895
G1 X124.12 Y82.807 E.02896
G1 X125.034 Y82.671 E.02897
G1 X125.972 Y82.626 E.02944
G1 X126.879 Y82.671 E.02847
G1 X127.793 Y82.807 E.02897
G1 X128.689 Y83.031 E.02896
G1 X129.558 Y83.343 E.02895
G1 X130.393 Y83.737 E.02895
G1 X131.186 Y84.212 E.02898
G1 X131.927 Y84.763 E.02895
G1 X132.612 Y85.383 E.02897
G1 X133.232 Y86.067 E.02895
G1 X133.782 Y86.809 E.02896
G1 X134.257 Y87.601 E.02896
G1 X134.652 Y88.436 E.02896
G1 X134.963 Y89.306 E.02897
G1 X135.188 Y90.202 E.02897
G1 X135.297 Y90.935 E.02324
G1 X135.346 Y91.577 E.02019
G1 X135.36 Y92.22 E.02017
G1 X135.323 Y92.961 E.02326
G1 X135.188 Y93.875 E.02897
G1 X134.963 Y94.77 E.02894
G1 X134.652 Y95.64 E.02897
G1 X134.257 Y96.475 E.02896
G1 X133.782 Y97.267 E.02896
G1 X133.232 Y98.009 E.02896
G1 X132.612 Y98.694 E.02897
G1 X131.927 Y99.314 E.02897
G1 X131.186 Y99.864 E.02893
G1 X130.393 Y100.339 E.02898
G1 X129.558 Y100.734 E.02896
G1 X128.689 Y101.045 E.02894
G1 X127.793 Y101.27 E.02897
G1 X126.879 Y101.405 E.02897
G1 X125.956 Y101.45 E.02897
G1 X125.034 Y101.405 E.02894
G1 X124.12 Y101.27 E.02897
G1 X123.224 Y101.045 E.02897
G1 X122.355 Y100.734 E.02894
G1 X121.52 Y100.339 E.02896
G1 X120.727 Y99.864 E.02898
G1 X119.985 Y99.314 E.02896
G1 X119.301 Y98.694 E.02895
G1 X118.681 Y98.009 E.02897
G1 X118.13 Y97.267 E.02898
G1 X117.656 Y96.475 E.02894
G1 X117.261 Y95.64 E.02896
G1 X116.949 Y94.77 E.02898
G1 X116.725 Y93.875 E.02893
G1 X116.59 Y92.961 E.02897
G1 X116.544 Y92.038 E.02898
G1 X116.59 Y91.116 E.02894
G1 X116.725 Y90.202 E.02897
G1 X116.949 Y89.306 E.02896
G1 X117.261 Y88.436 E.02898
G1 X117.656 Y87.601 E.02896
G1 X118.1 Y86.861 E.02706
G1 X117.817 Y86.599 F10800
;TYPE:External perimeter
G1 F600
G1 X118.389 Y85.828 E.0301
G1 X119.034 Y85.116 E.03012
G1 X119.746 Y84.471 E.03012
G1 X120.518 Y83.898 E.03014
G1 X121.342 Y83.404 E.03012
G1 X122.21 Y82.994 E.0301
G1 X123.115 Y82.67 E.03014
G1 X124.047 Y82.437 E.03012
G1 X124.997 Y82.296 E.03011
G1 X125.972 Y82.249 E.03061
G1 X126.916 Y82.296 E.02964
G1 X127.866 Y82.437 E.03011
G1 X128.798 Y82.67 E.03012
G1 X129.703 Y82.994 E.03014
G1 X130.571 Y83.404 E.0301
G1 X131.395 Y83.898 E.03012
G1 X132.167 Y84.471 E.03014
G1 X132.879 Y85.116 E.03012
G1 X133.524 Y85.828 E.03012
G1 X134.096 Y86.599 E.0301
G1 X134.59 Y87.423 E.03012
G1 X135.001 Y88.292 E.03014
G1 X135.325 Y89.196 E.03011
G1 X135.558 Y90.128 E.03012
G1 X135.67 Y90.88 E.02384
G1 X135.723 Y91.558 E.02132
G1 X135.736 Y92.239 E.02136
G1 X135.699 Y92.998 E.02383
G1 X135.558 Y93.948 E.03011
G1 X135.325 Y94.88 E.03012
G1 X135.001 Y95.785 E.03014
G1 X134.59 Y96.653 E.03011
G1 X134.096 Y97.477 E.03012
G1 X133.524 Y98.249 E.03013
G1 X132.879 Y98.961 E.03012
G1 X132.167 Y99.606 E.03012
G1 X131.395 Y100.178 E.03013
G1 X130.571 Y100.672 E.03012
G1 X129.703 Y101.083 E.03011
G1 X128.798 Y101.406 E.03013
G1 X127.866 Y101.64 E.03013
G1 X126.916 Y101.781 E.03011
G1 X125.956 Y101.828 E.03014
G1 X124.997 Y101.781 E.0301
G1 X124.047 Y101.64 E.03011
G1 X123.115 Y101.406 E.03013
G1 X122.21 Y101.083 E.03013
G1 X121.342 Y100.672 E.03011
G1 X120.518 Y100.178 E.03012
G1 X119.746 Y99.606 E.03013
G1 X119.034 Y98.961 E.03012
G1 X118.389 Y98.249 E.03012
G1 X117.817 Y97.477 E.03013
G1 X117.323 Y96.653 E.03012
G1 X116.912 Y95.785 E.03011
G1 X116.588 Y94.88 E.03014
G1 X116.355 Y93.948 E.03012
G1 X116.214 Y92.998 E.03011
G1 X116.167 Y92.038 E.03014
G1 X116.214 Y91.079 E.0301
G1 X116.355 Y90.128 E.03014
G1 X116.588 Y89.196 E.03012
G1 X116.912 Y88.292 E.03011
G1 X117.323 Y87.423 E.03014
G1 X117.786 Y86.651 E.02822
;WIPE_START
G1 F8640
G1 X117.817 Y86.599 E-.01797
G1 X118.389 Y85.828 E-.285
G1 X119.034 Y85.116 E-.28521
G1 X119.746 Y84.471 E-.28521
G1 X120.518 Y83.898 E-.28542
G1 X121.342 Y83.404 E-.28522
G1 X121.512 Y83.323 E-.05597
;WIPE_END
G1 Z.8 F10800
G1 X123.929 Y90.844
G1 Z.2
G1 E1.5 F2700
;TYPE:Perimeter
G1 F600
G1 X123.98 Y90.746 E.00346
G1 X124.27 Y90.385 E.01452
G1 X124.625 Y90.088 E.01451
G1 X125.031 Y89.866 E.01451
G1 X125.473 Y89.727 E.01453
G1 X125.933 Y89.677 E.01451
G1 X126.394 Y89.718 E.01451
G1 X126.838 Y89.848 E.01451
G1 X127.249 Y90.062 E.01453
G1 X127.61 Y90.352 E.01452
G1 X127.907 Y90.707 E.01451
G1 X128.129 Y91.113 E.01451
G1 X128.268 Y91.555 E.01453
G1 X128.318 Y92.015 E.01451
G1 X128.277 Y92.476 E.01451
G1 X128.147 Y92.92 E.01451
G1 X127.933 Y93.331 E.01453
G1 X127.643 Y93.691 E.01449
G1 X127.288 Y93.989 E.01453
G1 X126.882 Y94.211 E.01451
G1 X126.44 Y94.35 E.01453
G1 X125.98 Y94.4 E.01451
G1 X125.519 Y94.359 E.01451
G1 X125.074 Y94.229 E.01454
G1 X124.664 Y94.015 E.0145
G1 X124.303 Y93.725 E.01452
G1 X124.006 Y93.37 E.01451
G1 X123.784 Y92.964 E.01451
G1 X123.645 Y92.522 E.01453
G1 X123.595 Y92.062 E.01451
G1 X123.636 Y91.601 E.01451
G1 X123.766 Y91.156 E.01454
G1 X123.901 Y90.897 E.00916
;WIPE_START
G1 F8640
G1 X123.929 Y90.844 E-.0178
G1 X123.98 Y90.746 E-.0328
G1 X124.27 Y90.385 E-.13747
G1 X124.625 Y90.088 E-.13741
G1 X125.031 Y89.866 E-.13737
G1 X125.473 Y89.727 E-.13755
G1 X125.933 Y89.677 E-.13737
G1 X126.394 Y89.718 E-.1374
G1 X126.838 Y89.848 E-.13735
G1 X127.249 Y90.062 E-.13756
G1 X127.61 Y90.352 E-.13747
G1 X127.907 Y90.707 E-.13741
G1 X128.028 Y90.929 E-.07504
;WIPE_END
G1 Z.8 F10800
G1 X126.441 Y93.958
G1 Z.2
G1 E1.5 F2700
G1 F600
G1 X126.385 Y93.977 E.00185
G1 X125.998 Y94.023 E.01222
G1 X125.61 Y93.993 E.0122
G1 X125.236 Y93.888 E.01218
G1 X124.889 Y93.712 E.0122
G1 X124.583 Y93.471 E.01221
G1 X124.329 Y93.176 E.01221
G1 X124.139 Y92.837 E.01218
G1 X124.018 Y92.467 E.01221
G1 X123.972 Y92.08 E.01222
G1 X124.002 Y91.692 E.0122
G1 X124.107 Y91.318 E.01218
G1 X124.283 Y90.97 E.01223
G1 X124.523 Y90.665 E.01217
G1 X124.819 Y90.411 E.01223
G1 X125.158 Y90.221 E.01218
G1 X125.528 Y90.1 E.01221
G1 X125.914 Y90.053 E.01219
G1 X126.302 Y90.083 E.0122
G1 X126.677 Y90.188 E.01221
G1 X127.024 Y90.365 E.01221
G1 X127.33 Y90.605 E.01219
G1 X127.583 Y90.901 E.01221
G1 X127.774 Y91.24 E.0122
G1 X127.895 Y91.61 E.01221
G1 X127.941 Y91.996 E.01219
G1 X127.911 Y92.384 E.0122
G1 X127.806 Y92.759 E.01221
G1 X127.63 Y93.106 E.0122
G1 X127.39 Y93.412 E.01219
G1 X127.094 Y93.665 E.01221
G1 X126.755 Y93.856 E.0122
G1 X126.498 Y93.94 E.00848
G1 X126.329 Y93.604 F10800
;TYPE:External perimeter
G1 F600
G1 X126.017 Y93.646 E.00987
G1 X125.702 Y93.627 E.00989
G1 X125.397 Y93.547 E.00989
G1 X125.113 Y93.409 E.0099
G1 X124.862 Y93.218 E.00989
G1 X124.653 Y92.982 E.00988
G1 X124.494 Y92.71 E.00988
G1 X124.391 Y92.411 E.00992
G1 X124.348 Y92.099 E.00987
G1 X124.367 Y91.784 E.00989
G1 X124.448 Y91.479 E.00989
G1 X124.586 Y91.195 E.0099
G1 X124.776 Y90.944 E.00987
G1 X125.013 Y90.735 E.00991
G1 X125.285 Y90.576 E.00988
G1 X125.583 Y90.473 E.00989
G1 X125.896 Y90.43 E.00991
G1 X126.211 Y90.449 E.00989
G1 X126.516 Y90.529 E.00989
G1 X126.8 Y90.668 E.00991
G1 X127.051 Y90.858 E.00987
G1 X127.26 Y91.095 E.00991
G1 X127.419 Y91.367 E.00988
G1 X127.522 Y91.665 E.00989
G1 X127.565 Y91.978 E.00991
G1 X127.545 Y92.293 E.0099
G1 X127.465 Y92.598 E.00989
G1 X127.327 Y92.881 E.00987
G1 X127.136 Y93.133 E.00991
G1 X126.9 Y93.342 E.00988
G1 X126.628 Y93.501 E.00988
G1 X126.386 Y93.584 E.00802
;WIPE_START
G1 F8640
G1 X126.329 Y93.604 E-.01793
G1 X126.017 Y93.646 E-.09346
G1 X125.702 Y93.627 E-.09369
G1 X125.397 Y93.547 E-.09361
G1 X125.113 Y93.409 E-.09374
G1 X124.862 Y93.218 E-.09364
G1 X124.653 Y92.982 E-.09359
G1 X124.494 Y92.71 E-.09353
G1 X124.391 Y92.411 E-.09388
G1 X124.348 Y92.099 E-.0935
G1 X124.367 Y91.784 E-.09369
G1 X124.448 Y91.479 E-.09369
G1 X124.586 Y91.195 E-.09374
G1 X124.776 Y90.944 E-.09346
G1 X125.013 Y90.735 E-.09381
G1 X125.285 Y90.576 E-.09353
G1 X125.532 Y90.491 E-.07751
;WIPE_END
G1 Z.8 F10800
G1 X133.374 Y87.082
G1 Z.2
G1 E1.5 F2700
;TYPE:Solid infill
;WIDTH:0.423358
G1 F600
G1 X132.122 Y85.829 E.05603
G1 X131.508 Y85.273 E.0262
G1 X130.819 Y84.762 E.02714
G1 X130.068 Y84.314 E.02766
G1 X133.681 Y87.927 E.16163
G1 X134.042 Y88.689 E.02667
G1 X134.118 Y88.901 E.00712
G1 X129.094 Y83.877 E.22476
G1 X128.497 Y83.664 E.02005
G1 X128.29 Y83.612 E.00675
G1 X134.383 Y89.704 E.27256
G1 X134.552 Y90.411 E.023
M73 P2 R37
M73 Q2 S38
G1 X127.583 Y83.443 E.31175
G1 X126.952 Y83.349 E.02018
G1 X134.645 Y91.043 E.34418
G1 X134.688 Y91.623 E.0184
M73 Q2 S37
G1 X126.371 Y83.307 E.37205
G1 X125.821 Y83.294 E.0174
G1 X134.701 Y92.175 E.39728
G1 X134.676 Y92.688 E.01625
G1 X125.307 Y83.319 E.41914
G1 X124.821 Y83.37 E.01546
G1 X134.625 Y93.174 E.4386
G1 X134.555 Y93.643 E.015
G1 X124.352 Y83.44 E.45645
G1 X123.913 Y83.539 E.01424
G1 X134.456 Y94.081 E.47164
G1 X134.348 Y94.512 E.01406
G1 X123.483 Y83.647 E.48606
G1 X123.082 Y83.783 E.01339
G1 X134.211 Y94.913 E.4979
G1 X134.07 Y95.309 E.0133
G1 X122.685 Y83.925 E.5093
G1 X122.314 Y84.092 E.01287
G1 X133.903 Y95.681 E.51845
G1 X133.73 Y96.046 E.01278
G1 X121.949 Y84.264 E.52706
G1 X121.603 Y84.457 E.01253
G1 X126.639 Y89.493 E.22529
G1 X126.848 Y89.545 E.00681
G1 X127.318 Y89.767 E.01644
G1 X127.734 Y90.077 E.01641
G1 X128.083 Y90.461 E.01641
G1 X128.35 Y90.906 E.01642
G1 X128.515 Y91.369 E.01555
G1 X133.538 Y96.392 E.22471
G1 X133.336 Y96.728 E.0124
G1 X128.597 Y91.989 E.21201
G1 X128.56 Y92.489 E.01586
G1 X133.121 Y97.051 E.20407
G1 X132.892 Y97.36 E.01217
G1 X128.452 Y92.92 E.19863
G1 X128.281 Y93.287 E.01281
G1 X132.656 Y97.662 E.19572
M73 P3 R37
G1 X132.4 Y97.944 E.01205
M73 Q3 S37
G1 X128.069 Y93.613 E.19375
G1 X127.918 Y93.816 E.008
G1 X127.822 Y93.904 E.00412
G1 X132.145 Y98.227 E.1934
G1 X131.862 Y98.482 E.01205
G1 X127.539 Y94.159 E.1934
G1 X127.204 Y94.362 E.01239
G1 X131.58 Y98.738 E.19577
G1 X131.278 Y98.974 E.01212
M73 P3 R36
G1 X126.829 Y94.525 E.19903
G1 X126.6 Y94.606 E.00768
G1 X126.402 Y94.636 E.00633
G1 X130.969 Y99.203 E.20431
G1 X130.646 Y99.418 E.01227
G1 X125.723 Y94.495 E.22024
;WIPE_START
G1 F8640
G1 X129.296 Y98.068 E-1.5
;WIPE_END
G1 Z.8 F10800
G1 X126.19 Y89.582
G1 Z.2
G1 E1.5 F2700
G1 F600
G1 X121.267 Y84.658 E.22026
G1 X120.944 Y84.873 E.01227
G1 X125.511 Y89.441 E.20433
G1 X125.313 Y89.47 E.00633
G1 X125.084 Y89.552 E.00769
G1 X120.635 Y85.103 E.19903
G1 X120.333 Y85.338 E.0121
G1 X124.709 Y89.714 E.19577
G1 X124.373 Y89.917 E.01242
G1 X120.05 Y85.594 E.1934
G1 X119.768 Y85.85 E.01205
G1 X124.091 Y90.173 E.1934
G1 X123.995 Y90.26 E.0041
G1 X123.844 Y90.464 E.00803
G1 X119.512 Y86.132 E.1938
G1 X119.257 Y86.414 E.01203
G1 X123.632 Y90.79 E.19574
G1 X123.461 Y91.157 E.01281
G1 X119.021 Y86.717 E.19863
G1 X118.792 Y87.026 E.01217
G1 X123.353 Y91.587 E.20404
G1 X123.316 Y92.088 E.01589
